mukamel-lab/BICCN-Mouse-MOp/flagship_fig8/results/integration_results_scf_mop_visp.tsv
sample	cluster_joint_r0.1	cluster_joint_r1	cluster_joint_r2	cluster_joint_r4	tsne_x	tsne_y	modality
LS-15395_S43_E1-50	7	9	17	30	-7.013664334496008	10.134143524186063	smarter_cells
LS-15395_S44_E1-50	7	9	19	19	-9.375187204716132	11.082740820346398	smarter_cells
LS-15395_S46_E1-50	1	4	3	5	5.077951981910691	7.952012549665303	smarter_cells
LS-15395_S48_E1-50	1	4	3	22	4.788595285697156	10.278378217849488	smarter_cells
LS-15395_S50_E1-50	4	7	5	11	10.161665699163823	4.266431702260426	smarter_cells
LS-15395_S52_E1-50	7	9	19	19	-9.90474366368905	11.05734279961487	smarter_cells
LS-15395_S54_E1-50	2	1	2	6	7.829157097379952	-3.1862453313772754	smarter_cells
LS-15395_S56_E1-50	4	8	6	10	8.934022716654583	0.4834280064204519	smarter_cells
LS-15396_S41_E1-50	4	7	5	14	10.443237041309025	5.3952543667960295	smarter_cells
LS-15396_S42_E1-50	4	7	5	14	12.031108720962557	4.116466112221745	smarter_cells
LS-15396_S45_E1-50	4	13	18	17	8.757043073122118	4.337277295836164	smarter_cells
LS-15396_S47_E1-50	2	1	7	28	6.5639717584608235	-1.213872677687919	smarter_cells
LS-15396_S49_E1-50	4	8	6	38	9.998215499737578	1.3889293889165713	smarter_cells
LS-15396_S52_E1-50	4	8	6	10	7.831070312077186	-1.7390246317439926	smarter_cells
LS-15396_S53_E1-50	4	7	5	11	11.603539428751166	3.166136627405021	smarter_cells
LS-15396_S54_E1-50	4	8	6	33	7.567807080563278	1.1429058601240052	smarter_cells
LS-15396_S55_E1-50	4	7	5	14	12.214985453734233	3.7548254808614816	smarter_cells
LS-15396_S56_E1-50	4	7	5	14	11.194691011647983	4.565537454368961	smarter_cells
LS-15396_S57_E1-50	4	7	5	11	11.552556997907187	3.596790204937072	smarter_cells
LS-15396_S58_E1-50	4	8	6	10	9.02491408557691	0.35815964776581516	smarter_cells
LS-15396_S62_E1-50	4	7	5	14	11.701428356176088	3.854029797599834	smarter_cells
LS-15396_S63_E1-50	2	1	7	28	6.9713477258030485	-0.6178983341541175	smarter_cells
LS-15396_S64_E1-50	7	9	19	19	-8.401049464064716	10.53297536207491	smarter_cells
LS-15396_S74_E1-50	5	2	1	3	4.849461074410794	-10.05754763600416	smarter_cells
LS-15396_S75_E1-50	2	1	7	28	5.427091619908209	-0.20316307431023337	smarter_cells
LS-15396_S76_E1-50	5	2	1	3	6.049500106448466	-12.587556013525578	smarter_cells
LS-15396_S77_E1-50	5	2	1	36	4.246751911249752	-10.286744184448715	smarter_cells
LS-15396_S79_E1-50	5	2	1	3	4.631551945487703	-11.163979176855268	smarter_cells
LS-15396_S81_E1-50	2	1	2	13	6.080875405813273	-2.1137765633754086	smarter_cells
LS-15396_S82_E1-50	5	2	9	23	2.8708056743893904	-13.176751357035517	smarter_cells
LS-15396_S84_E1-50	5	2	1	39	7.437117358189792	-11.490736494478888	smarter_cells
LS-15396_S85_E1-50	1	4	3	5	6.409307439259794	8.433277694977871	smarter_cells
LS-15396_S88_E1-50	5	2	1	39	6.424661307246947	-12.04176186224087	smarter_cells
LS-15398_S18_E1-50	5	2	1	36	5.234486505151664	-9.632534006711632	smarter_cells
LS-15398_S20_E1-50	2	1	7	2	5.400238461175863	-0.4087499650504154	smarter_cells
LS-15398_S21_E1-50	5	2	1	39	7.7707066256669455	-11.401191186783347	smarter_cells
LS-15398_S22_E1-50	4	8	6	10	8.248929503991752	-0.6316967061983604	smarter_cells
LS-15398_S25_E1-50	2	1	7	2	4.737111915556297	-0.5871915236513501	smarter_cells
LS-15398_S29_E1-50	5	2	1	39	7.889502806333849	-11.756725324406148	smarter_cells
LS-15398_S30_E1-50	2	1	7	28	6.029460852168672	0.017623725577970126	smarter_cells
LS-15398_S32_E1-50	5	2	1	18	6.096937518266739	-10.345592548877654	smarter_cells
LS-15500_S09_E1-50	2	1	7	2	4.937376471244695	-1.2966146994242216	smarter_cells
LS-15500_S10_E1-50	2	1	7	2	5.059053109469736	-0.6062467214998217	smarter_cells
LS-15500_S12_E1-50	5	2	1	39	7.273336407434469	-11.764812811061974	smarter_cells
LS-15500_S14_E1-50	2	1	7	28	5.48372069490835	-0.2276828507520898	smarter_cells
LS-15500_S15_E1-50	2	1	7	28	6.425943529328818	0.13426937840729014	smarter_cells
LS-15500_S20_E1-50	5	2	1	18	6.762499959714833	-10.269195804237956	smarter_cells
LS-15500_S22_E1-50	5	2	1	3	5.516215782244594	-12.396191149003377	smarter_cells
LS-15500_S23_E1-50	5	2	1	39	7.358692445508859	-12.17263587390612	smarter_cells
LS-15500_S24_E1-50	2	1	7	28	6.536780611406354	-1.5395453757986377	smarter_cells
LS-15500_S27_E1-50	4	8	6	33	7.687424102230361	0.965584896762462	smarter_cells
LS-15500_S28_E1-50	4	13	18	17	7.58917580836721	4.691284712947946	smarter_cells
LS-15500_S31_E1-50	4	8	6	33	8.653591043348577	1.3999299595656367	smarter_cells
LS-15500_S32_E1-50	2	1	7	28	6.44921251297749	0.1363595754988866	smarter_cells
LS-15501_S25_E1-50	4	13	18	17	8.2997786002137	4.992163195161889	smarter_cells
LS-15501_S26_E1-50	7	9	19	19	-9.943880056327522	11.628755538190662	smarter_cells
LS-15501_S29_E1-50	1	4	3	22	5.131385119127005	9.12540219362392	smarter_cells
LS-15501_S30_E1-50	4	13	18	17	7.740215973258488	5.482825156421775	smarter_cells
LS-15501_S31_E1-50	4	7	5	11	10.992767949177042	4.054090175698823	smarter_cells
LS-15501_S32_E1-50	7	9	19	19	-9.340380207909922	10.810436560632537	smarter_cells
LS-15501_S33_E1-50	1	4	3	5	4.724728415372998	6.720644318228136	smarter_cells
LS-15501_S35_E1-50	1	4	3	22	5.024203194980116	10.531327231023036	smarter_cells
LS-15501_S37_E1-50	1	4	14	32	3.10728168511123	10.780355093385118	smarter_cells
LS-15501_S38_E1-50	2	1	7	28	5.665145268180579	-0.3427391815399966	smarter_cells
LS-15501_S40_E1-50	1	4	3	22	5.779378327498532	9.211650689177569	smarter_cells
LS-15501_S42_E1-50	1	4	3	32	4.450425048898817	10.595871860752924	smarter_cells
LS-15501_S45_E1-50	4	7	5	11	9.625290571971648	3.785495812923308	smarter_cells
LS-15501_S46_E1-50	4	7	5	11	9.655048919813414	4.992221219387745	smarter_cells
LS-15501_S48_E1-50	7	9	19	19	-8.480111495515393	10.880067724185249	smarter_cells
LS-15501_S73_E1-50	4	13	18	17	7.809336432555277	5.522623217241306	smarter_cells
LS-15501_S74_E1-50	4	7	5	11	11.428283570826943	3.1966970672823978	smarter_cells
LS-15501_S75_E1-50	4	8	6	33	8.35864173099631	1.4048187991037204	smarter_cells
LS-15501_S76_E1-50	1	15	22	31	-0.9115599892267822	9.598634120890233	smarter_cells
LS-15501_S77_E1-50	7	9	19	19	-9.179339746444663	10.259929715092127	smarter_cells
LS-15501_S78_E1-50	4	8	6	10	8.89886698492477	1.0640317183762296	smarter_cells
LS-15501_S80_E1-50	4	7	5	14	10.448783656255063	5.40170655592395	smarter_cells
LS-15501_S82_E1-50	4	7	5	14	11.595051886441677	4.162674332797182	smarter_cells
LS-15501_S83_E1-50	4	7	5	14	10.550051469313171	5.407027775185549	smarter_cells
LS-15501_S84_E1-50	4	7	5	11	9.83582712991107	5.184706210613147	smarter_cells
LS-15501_S85_E1-50	4	8	6	33	9.344790897397	1.920224318221493	smarter_cells
LS-15501_S86_E1-50	4	8	6	10	7.728126266911799	-0.7389250401964198	smarter_cells
LS-15501_S88_E1-50	7	9	19	19	-8.916994433607353	10.093602263337788	smarter_cells
LS-15510_S01_E1-50	2	1	7	28	5.969102620034369	-0.00984780273732316	smarter_cells
LS-15510_S02_E1-50	2	1	7	2	4.699877941405935	-0.5235846046762377	smarter_cells
LS-15510_S03_E1-50	5	2	1	3	5.400692877988637	-12.045226218466716	smarter_cells
LS-15510_S04_E1-50	2	1	7	2	4.782629972357919	-0.6529373833552222	smarter_cells
LS-15510_S05_E1-50	5	2	1	3	6.763962371049736	-11.262201974553408	smarter_cells
LS-15510_S06_E1-50	2	1	7	28	6.485806643720701	-0.09899191633386312	smarter_cells
LS-15510_S07_E1-50	2	1	7	2	5.403173414676142	-0.4469999658212471	smarter_cells
LS-15510_S08_E1-50	5	2	9	23	4.942980164529549	-13.105513623505054	smarter_cells
LS-15510_S09_E1-50	5	2	1	3	6.441085833473241	-9.687437118562622	smarter_cells
LS-15510_S10_E1-50	2	1	7	2	4.63856314272547	-1.0718465092784617	smarter_cells
LS-15510_S11_E1-50	5	2	1	3	6.643264614468501	-9.661189034569	smarter_cells
LS-15510_S12_E1-50	2	1	7	2	5.415719440677342	-0.5983500872939007	smarter_cells
LS-15510_S13_E1-50	2	1	7	2	4.728176380153317	-0.8040378713130041	smarter_cells
LS-15510_S14_E1-50	4	8	6	10	9.354157363199885	-0.5867116674486932	smarter_cells
LS-15510_S15_E1-50	5	2	9	23	4.202482572234173	-13.465713148625102	smarter_cells
LS-15510_S16_E1-50	2	1	2	6	7.462637319963278	-4.171798694782551	smarter_cells
LS-15510_S17_E1-50	1	4	3	22	4.958030238001162	10.230237665907909	smarter_cells
LS-15510_S18_E1-50	1	4	3	29	3.9845468137054687	10.463350475313343	smarter_cells
LS-15510_S19_E1-50	3	6	23	37	-9.518765995474824	-3.9876107842665784	smarter_cells
LS-15510_S20_E1-50	1	4	14	32	2.400516237310975	10.221519036566766	smarter_cells
LS-15510_S21_E1-50	1	4	3	22	5.875280519203615	8.940851170877652	smarter_cells
LS-15510_S22_E1-50	7	9	17	42	-7.646050774337044	11.896102527220819	smarter_cells
LS-15510_S23_E1-50	1	4	3	29	4.087688158851256	9.174313672101192	smarter_cells
LS-15510_S24_E1-50	1	4	3	5	5.855905342327416	7.810899953945732	smarter_cells
LS-15510_S25_E1-50	3	3	15	7	-10.041158500130912	-2.775273252294736	smarter_cells
LS-15510_S26_E1-50	3	6	23	37	-10.306001370152677	-4.563470338431559	smarter_cells
LS-15510_S27_E1-50	1	4	3	29	3.8628209174477033	9.689765482837263	smarter_cells
LS-15510_S28_E1-50	3	6	12	27	-8.077566429761463	-5.44578431898943	smarter_cells
LS-15510_S29_E1-50	6	12	13	8	-6.009480304836604	-10.823311667762582	smarter_cells
LS-15510_S30_E1-50	3	3	4	9	-7.7683149752245475	-1.4292386703453743	smarter_cells
LS-15510_S31_E1-50	1	4	3	29	3.087612767236729	10.435838333292	smarter_cells
LS-15510_S32_E1-50	6	14	20	21	-4.150597356972207	-6.639373933218637	smarter_cells
LS-15510_S33_E1-50	3	6	12	26	-9.928672943226626	-4.80416131273092	smarter_cells
LS-15510_S34_E1-50	3	3	15	7	-10.558241075341392	-3.669124458153638	smarter_cells
LS-15510_S35_E1-50	3	3	4	9	-7.3364428498134195	-2.4900382431704497	smarter_cells
LS-15510_S36_E1-50	1	5	16	12	2.209394096937362	9.696828919331796	smarter_cells
LS-15510_S37_E1-50	1	4	3	22	5.911947519046288	9.569470882581536	smarter_cells
LS-15510_S38_E1-50	1	4	3	22	6.1402795568592445	9.405578876291756	smarter_cells
LS-15510_S39_E1-50	3	6	12	27	-8.782831558157973	-5.678300544752415	smarter_cells
LS-15520_S01_E1-50	4	7	5	14	10.96889520390973	5.02027512863562	smarter_cells
LS-15520_S02_E1-50	4	7	5	11	9.803012881841992	3.8828357612431503	smarter_cells
LS-15520_S03_E1-50	2	1	7	28	5.39081582599398	-0.32388885397275313	smarter_cells
LS-15520_S04_E1-50	4	8	6	10	9.103558550993252	0.40642221462344363	smarter_cells
LS-15520_S05_E1-50	7	9	19	19	-9.39836086696885	11.481981015659265	smarter_cells
LS-15520_S06_E1-50	4	7	5	11	11.254358947380592	3.9661909136421567	smarter_cells
LS-15520_S07_E1-50	4	8	6	10	8.77732414672617	-0.25269034972105725	smarter_cells
LS-15520_S08_E1-50	4	13	18	17	7.72207644893744	5.222871051653624	smarter_cells
LS-15520_S09_E1-50	4	7	5	14	11.468542249698617	4.669917761774919	smarter_cells
LS-15520_S10_E1-50	4	7	5	11	11.254202980388175	3.854673103062423	smarter_cells
LS-15520_S11_E1-50	4	8	6	10	9.182453698387866	-0.07100022765216892	smarter_cells
LS-15520_S12_E1-50	4	7	5	14	10.398134350325677	5.0171418837845065	smarter_cells
LS-15520_S13_E1-50	4	7	5	14	11.134617896314527	5.0998083138089685	smarter_cells
LS-15520_S14_E1-50	4	8	6	33	8.091241840124212	1.0229399951475	smarter_cells
LS-15520_S15_E1-50	4	7	5	14	11.456615956395774	5.017037187301684	smarter_cells
LS-15520_S16_E1-50	4	7	5	11	10.233895060552848	3.5360738400945455	smarter_cells
LS-15520_S33_E1-50	4	8	6	33	8.579837919177113	1.0794324830843978	smarter_cells
LS-15520_S34_E1-50	4	7	5	14	10.792812432140568	5.414835888080079	smarter_cells
LS-15520_S35_E1-50	4	8	6	33	8.983344133879745	1.7679036174013083	smarter_cells
LS-15520_S37_E1-50	1	4	3	22	5.535571006772605	10.033645675732611	smarter_cells
LS-15520_S38_E1-50	4	7	5	11	11.802524779014567	3.8202114172887107	smarter_cells
LS-15520_S39_E1-50	4	8	6	38	10.97663967729516	2.8229824266707664	smarter_cells
LS-15520_S40_E1-50	4	7	5	14	10.969764934551987	4.967574940619415	smarter_cells
LS-15520_S41_E1-50	4	7	5	14	11.197813066386367	5.073549704991856	smarter_cells
LS-15520_S42_E1-50	7	9	19	19	-10.036484978698471	11.448405318850076	smarter_cells
LS-15520_S43_E1-50	4	8	6	33	8.473666246458356	1.9987723998572644	smarter_cells
LS-15520_S44_E1-50	4	7	5	14	11.1482285063441	4.628658264444601	smarter_cells
LS-15520_S45_E1-50	4	8	6	14	10.084317777130472	3.268252060727923	smarter_cells
LS-15520_S46_E1-50	4	7	5	11	11.498292939513357	3.9872458806821705	smarter_cells
LS-15520_S48_E1-50	7	9	19	19	-9.11134635753894	10.45435863812919	smarter_cells
LS-15520_S49_E1-50	4	7	5	14	11.519243672746274	4.8560730746303005	smarter_cells
LS-15520_S50_E1-50	4	8	6	38	10.530142654949593	2.698207694998046	smarter_cells
LS-15520_S51_E1-50	4	8	6	33	8.234817474756232	0.7413664877262425	smarter_cells
LS-15520_S52_E1-50	4	7	5	11	11.280212226092027	3.3292610181910747	smarter_cells
LS-15521_S01_E1-50	4	7	5	14	11.220154946455896	4.417216702207579	smarter_cells
LS-15521_S02_E1-50	4	8	6	10	9.141500372064478	0.19034809406241912	smarter_cells
LS-15521_S03_E1-50	4	8	6	10	9.200609987362025	0.08488567293516953	smarter_cells
LS-15521_S04_E1-50	4	7	5	14	11.015892281418441	4.23646381310783	smarter_cells
LS-15521_S05_E1-50	8	11	11	20	-4.890155874277148	1.323956773940108	smarter_cells
LS-15521_S06_E1-50	4	8	6	10	8.902815097099547	-0.09055171467764046	smarter_cells
LS-15521_S07_E1-50	4	7	5	11	11.33744198881243	3.70601273128809	smarter_cells
LS-15521_S08_E1-50	4	8	6	10	9.284884659043737	-0.6139227105390822	smarter_cells
LS-15521_S09_E1-50	4	8	6	10	8.109488540228924	-0.5448278463267526	smarter_cells
LS-15521_S10_E1-50	4	7	5	11	10.766410504015653	4.426990974414351	smarter_cells
LS-15521_S11_E1-50	4	7	5	11	10.599870811200194	4.204089128592389	smarter_cells
LS-15521_S12_E1-50	4	7	5	14	10.578310505954198	4.240143570763378	smarter_cells
LS-15521_S13_E1-50	1	4	3	22	5.997216536383025	8.503779792489457	smarter_cells
LS-15521_S14_E1-50	7	9	19	19	-9.865163179795358	11.139893742172102	smarter_cells
LS-15521_S15_E1-50	4	7	5	11	10.480110419041752	4.72724501232117	smarter_cells
LS-15521_S16_E1-50	4	7	5	14	11.658300728469962	4.062602202055649	smarter_cells
LS-15521_S35_E1-50	4	8	6	10	9.173096406252325	0.0210239412966689	smarter_cells
LS-15521_S36_E1-50	4	8	6	10	9.279905856868941	-0.9613637146956603	smarter_cells
LS-15521_S37_E1-50	4	7	5	14	10.51353351725534	5.224663051544541	smarter_cells
LS-15521_S38_E1-50	4	7	5	11	11.852655643696373	3.3110789713929676	smarter_cells
LS-15521_S39_E1-50	4	7	5	11	11.027500207221538	3.5400680812335845	smarter_cells
LS-15521_S41_E1-50	7	9	19	19	-9.068616481887913	9.107711467906165	smarter_cells
LS-15521_S42_E1-50	4	8	6	10	9.546564001165551	-1.2633899438598006	smarter_cells
LS-15521_S43_E1-50	7	9	19	19	-9.510967658184414	9.424644110990194	smarter_cells
LS-15521_S44_E1-50	4	7	5	11	10.358250596063282	3.753537263168014	smarter_cells
LS-15521_S45_E1-50	7	9	19	19	-9.970480612309311	11.381609582148574	smarter_cells
LS-15521_S46_E1-50	4	7	5	11	11.221098201657586	3.949894947963769	smarter_cells
LS-15521_S47_E1-50	4	8	6	10	9.390248543542826	-0.5400106984436224	smarter_cells
LS-15521_S48_E1-50	4	8	6	33	7.710322047875717	1.0061482622049982	smarter_cells
LS-15522_S01_E1-50	2	10	10	25	1.7180555801228086	-2.8297418267090966	smarter_cells
LS-15522_S02_E1-50	4	7	5	14	11.131170134984187	3.8076918416941687	smarter_cells
LS-15522_S03_E1-50	4	7	5	11	11.593881380366938	2.7271215193454084	smarter_cells
LS-15522_S04_E1-50	1	13	3	5	6.1504775027871865	6.939582736642517	smarter_cells
LS-15522_S06_E1-50	4	8	6	10	9.301390317844374	-1.5030003433023815	smarter_cells
LS-15522_S07_E1-50	1	4	3	5	6.2070767039053	7.944352342948511	smarter_cells
LS-15522_S08_E1-50	1	4	3	22	5.720594268799684	9.351631016685555	smarter_cells
LS-15522_S13_E1-50	4	7	5	14	11.193647958539358	4.238442779402083	smarter_cells
LS-15522_S15_E1-50	4	8	6	10	9.13865808650981	0.2934878874657405	smarter_cells
LS-15522_S49_E1-50	4	7	5	14	10.296997948074898	5.307186082218152	smarter_cells
LS-15522_S50_E1-50	4	8	6	10	8.914059554289906	0.2403945907060419	smarter_cells
LS-15522_S51_E1-50	4	7	5	11	10.722390398364292	3.909306175784815	smarter_cells
LS-15522_S53_E1-50	7	9	19	19	-9.162793506185618	11.096595380023153	smarter_cells
LS-15522_S54_E1-50	4	8	6	10	9.503028143150232	-0.7814702937941322	smarter_cells
LS-15522_S55_E1-50	4	8	6	33	7.804507651507595	1.1720470299270511	smarter_cells
LS-15522_S56_E1-50	4	13	18	17	6.543437435936405	4.809616479934206	smarter_cells
LS-15522_S57_E1-50	7	9	19	19	-8.824291741662275	10.0697667999761	smarter_cells
LS-15522_S58_E1-50	2	1	7	28	7.533805524252084	-1.5821476158731098	smarter_cells
LS-15522_S60_E1-50	4	8	6	10	9.160357097457938	-0.13437504319636795	smarter_cells
LS-15522_S61_E1-50	4	8	6	10	9.382280463830076	-0.4432057688651533	smarter_cells
LS-15522_S62_E1-50	7	9	19	19	-9.21802718406904	9.225440083555139	smarter_cells
LS-15522_S63_E1-50	7	9	19	19	-9.195223562301196	8.888526429944072	smarter_cells
LS-15522_S64_E1-50	4	7	5	14	11.79096289798752	3.6567688883931586	smarter_cells
LS-15524_S09_E1-50	2	1	7	28	6.893921826812553	-0.754279648242655	smarter_cells
LS-15524_S10_E1-50	4	8	6	10	9.30199058578813	-0.6846019839517552	smarter_cells
LS-15524_S11_E1-50	4	13	18	17	7.566221775552378	5.503016794481226	smarter_cells
LS-15524_S12_E1-50	4	7	5	11	9.594299659204507	3.801873977088103	smarter_cells
LS-15524_S13_E1-50	4	8	6	10	9.11604740798848	0.5283342401524183	smarter_cells
LS-15524_S14_E1-50	1	4	3	22	5.196850524517672	8.766200401158551	smarter_cells
LS-15524_S15_E1-50	4	8	6	33	7.70182693074214	1.3339495135556085	smarter_cells
LS-15524_S16_E1-50	4	7	5	14	11.367212600537172	4.3541362716101135	smarter_cells
LS-15524_S17_E1-50	4	7	5	11	9.836630898369926	4.516852690263377	smarter_cells
LS-15524_S18_E1-50	4	7	5	14	11.0699104744577	4.843621364507447	smarter_cells
LS-15524_S19_E1-50	4	7	5	11	11.069343680018562	3.1678190865764204	smarter_cells
LS-15524_S20_E1-50	4	8	6	10	8.98713935772731	0.5675596356317165	smarter_cells
LS-15524_S22_E1-50	4	8	6	33	7.905610426510496	1.6507969019802915	smarter_cells
LS-15524_S23_E1-50	4	8	6	33	8.781916303598113	1.1602312027053645	smarter_cells
LS-15524_S24_E1-50	4	7	5	14	11.346598541690419	4.707083987686426	smarter_cells
LS-15524_S49_E1-50	4	8	6	38	10.567355177398786	1.7539768498794812	smarter_cells
LS-15524_S50_E1-50	4	7	5	11	11.304907745373818	3.423646514208235	smarter_cells
LS-15524_S51_E1-50	8	11	11	20	-4.833787186059227	1.2070474607359427	smarter_cells
LS-15524_S52_E1-50	7	9	19	19	-9.707194388090086	10.986467807450563	smarter_cells
LS-15524_S53_E1-50	4	8	6	38	10.62366029643825	1.9496934229829257	smarter_cells
LS-15524_S54_E1-50	1	15	22	31	-0.7416923568911601	10.03243665268318	smarter_cells
LS-15524_S55_E1-50	4	7	5	11	9.606387681520477	4.681763389523109	smarter_cells
LS-15524_S56_E1-50	4	8	6	10	9.12352052966331	-1.1915358794455206	smarter_cells
LS-15524_S57_E1-50	4	7	5	11	10.746737241326299	4.235631131986908	smarter_cells
LS-15524_S58_E1-50	4	8	6	38	10.780698919542388	2.8367628894266037	smarter_cells
LS-15524_S59_E1-50	4	7	5	14	11.692695221337125	3.9116039179595243	smarter_cells
LS-15524_S60_E1-50	4	7	5	14	11.892566650588194	3.7113293754153283	smarter_cells
LS-15524_S61_E1-50	4	8	6	10	9.249108516655511	-0.1200320038734052	smarter_cells
LS-15524_S62_E1-50	1	15	22	31	-0.2511694027305737	10.614683995081577	smarter_cells
LS-15524_S63_E1-50	4	7	5	14	11.947884974231332	3.0490959871198675	smarter_cells
LS-15524_S64_E1-50	4	7	5	11	12.114364985243991	2.6957948954230044	smarter_cells
LS-15524_S65_E1-50	4	7	5	14	11.764960744050342	3.8699629965164353	smarter_cells
LS-15524_S66_E1-50	4	7	5	14	11.489662833386689	3.9403629919680583	smarter_cells
LS-15524_S67_E1-50	4	8	6	38	11.145440306605819	2.6557368664363024	smarter_cells
LS-15524_S68_E1-50	4	13	18	17	7.647270996005325	5.216314366137731	smarter_cells
LS-15524_S69_E1-50	4	8	6	10	8.265761973239355	-0.5053686334182892	smarter_cells
LS-15524_S70_E1-50	1	15	22	31	-0.6730856368905114	10.021862391108773	smarter_cells
LS-15524_S71_E1-50	4	7	5	14	10.924583779889943	4.306567133799115	smarter_cells
LS-15524_S72_E1-50	4	8	6	10	9.565960431280379	0.7211567168240491	smarter_cells
LS-15524_S73_E1-50	4	8	6	10	9.812945385471751	0.5856145216890088	smarter_cells
LS-15524_S74_E1-50	4	7	5	11	10.654034189970384	4.509643696741442	smarter_cells
LS-15524_S75_E1-50	4	7	5	11	10.028610970516665	4.06326763073347	smarter_cells
LS-15524_S76_E1-50	7	9	19	19	-9.263778728037849	10.98630838369147	smarter_cells
LS-15524_S77_E1-50	4	7	5	14	10.626172021639716	5.343450045873827	smarter_cells
LS-15524_S78_E1-50	4	8	6	33	7.657938269356037	1.3573112405375112	smarter_cells
LS-15524_S79_E1-50	4	7	5	14	11.354830890671845	5.1669425237616835	smarter_cells
LS-15524_S80_E1-50	4	7	5	14	10.933262492356596	5.113321947251121	smarter_cells
LS-15524_S81_E1-50	4	7	5	14	10.423553820488383	5.414838450008783	smarter_cells
LS-15524_S82_E1-50	4	7	5	11	9.604486664898445	4.95969594947231	smarter_cells
LS-15524_S83_E1-50	7	9	19	19	-9.59767058214617	9.21777592717873	smarter_cells
LS-15524_S84_E1-50	4	7	5	11	11.484755906727832	3.5888168205317355	smarter_cells
LS-15524_S85_E1-50	7	9	19	19	-9.777871026938445	11.751629827262239	smarter_cells
LS-15524_S86_E1-50	4	7	5	14	10.43939010837727	5.436007707821881	smarter_cells
LS-15524_S87_E1-50	4	13	18	17	8.510807840433328	4.746804983056461	smarter_cells
LS-15524_S88_E1-50	4	7	5	14	10.655430952726546	4.190537519395423	smarter_cells
LS-15525_S01_E1-50	5	2	1	36	5.714542023989851	-10.025744055728971	smarter_cells
LS-15525_S02_E1-50	5	2	1	3	4.526854789409438	-11.420320215223308	smarter_cells
LS-15525_S03_E1-50	5	2	1	3	5.614655467260362	-11.415272212905233	smarter_cells
LS-15525_S04_E1-50	5	2	1	36	6.813547421396153	-11.072196022027224	smarter_cells
LS-15525_S05_E1-50	5	2	1	36	7.283103571800134	-10.7036780659764	smarter_cells
LS-15525_S06_E1-50	5	2	1	18	5.785177699423041	-10.188699013110778	smarter_cells
LS-15526_S65_E1-50	1	4	3	22	5.6752447225240745	8.889040249294117	smarter_cells
LS-15526_S66_E1-50	1	4	3	22	5.661586973270614	9.517887121926208	smarter_cells
LS-15526_S67_E1-50	4	7	5	14	10.360534519137696	4.632317171717409	smarter_cells
LS-15526_S69_E1-50	1	15	22	31	-0.6970016072869408	10.35193218940722	smarter_cells
LS-15526_S70_E1-50	4	8	6	33	8.962958090449442	1.7918848851749731	smarter_cells
LS-15526_S71_E1-50	1	15	22	31	-0.8573236633945683	9.775442829574388	smarter_cells
LS-15526_S72_E1-50	4	7	5	14	11.317325900779606	4.162868831806213	smarter_cells
LS-15526_S73_E1-50	4	8	6	38	10.288857904318311	2.4570034390956716	smarter_cells
LS-15526_S74_E1-50	4	8	6	33	9.63552347741868	2.570431543547363	smarter_cells
LS-15526_S75_E1-50	4	8	6	38	10.835288266504314	2.231503700163374	smarter_cells
LS-15526_S76_E1-50	4	8	6	33	8.451771926949089	1.8800169280366676	smarter_cells
LS-15526_S77_E1-50	4	8	6	33	9.908616859711943	3.0031980296312932	smarter_cells
LS-15526_S78_E1-50	4	8	6	38	11.024506296597849	2.726608049481416	smarter_cells
LS-15526_S79_E1-50	4	7	5	14	11.324122987809337	3.395876590083031	smarter_cells
LS-15526_S80_E1-50	7	9	19	19	-9.71514142294604	11.120961007980148	smarter_cells
LS-15526_S81_E1-50	4	7	5	14	11.542290230979814	3.9194405673909647	smarter_cells
LS-15526_S82_E1-50	4	8	6	33	8.999839616146257	2.28032930508166	smarter_cells
LS-15526_S83_E1-50	4	7	5	11	10.752880488824054	3.2878087312878272	smarter_cells
LS-15526_S84_E1-50	1	4	3	22	5.928374911267015	9.309412634686886	smarter_cells
LS-15526_S85_E1-50	4	8	6	10	8.562654009770217	0.01752995310977581	smarter_cells
LS-15526_S86_E1-50	1	4	3	29	4.475446588331818	10.047790591328168	smarter_cells
LS-15526_S87_E1-50	4	7	5	14	11.33950978616565	4.472835768253759	smarter_cells
LS-15526_S88_E1-50	2	1	7	28	6.889038137073937	-0.5747807341422001	smarter_cells
LS-15526_S89_E1-50	7	9	19	19	-10.074932410664731	11.320178913082144	smarter_cells
LS-15526_S90_E1-50	4	13	18	17	7.257877222252111	5.217187704103134	smarter_cells
LS-15526_S91_E1-50	4	7	5	14	11.733088219121337	4.348201286288148	smarter_cells
LS-15526_S92_E1-50	4	8	6	33	8.510084795849954	2.0288637304237613	smarter_cells
LS-15526_S93_E1-50	4	8	6	38	10.668361944622928	2.395187321230742	smarter_cells
LS-15526_S94_E1-50	4	8	6	33	9.237299123645753	2.1937206032952767	smarter_cells
LS-15526_S95_E1-50	4	7	5	14	10.364710640301652	4.989866733855008	smarter_cells
LS-15526_S96_E1-50	4	7	5	14	11.596064794001904	4.11805100932579	smarter_cells
LS-15532_S02_E1-50	4	8	6	10	8.867971529161458	0.7540559114621014	smarter_cells
LS-15532_S03_E1-50	4	8	6	10	8.200822997083836	-0.5384905334661159	smarter_cells
LS-15532_S04_E1-50	7	9	19	19	-9.845074006789062	10.694961378805596	smarter_cells
LS-15532_S06_E1-50	4	8	6	10	9.509648852872438	0.7414729431400776	smarter_cells
LS-15532_S07_E1-50	2	10	10	15	4.0313576062300145	-3.1689986094135167	smarter_cells
LS-15532_S41_E1-50	4	7	5	14	11.597281566674246	4.332026050983261	smarter_cells
LS-15532_S42_E1-50	4	7	5	11	10.450679954907287	4.3650399460306115	smarter_cells
LS-15532_S43_E1-50	4	7	5	14	10.52404444974167	4.545377019903259	smarter_cells
LS-15532_S44_E1-50	2	10	10	25	1.3593836122618483	-3.050909107787277	smarter_cells
LS-15532_S45_E1-50	4	7	5	11	9.8706911269321	3.888711359277671	smarter_cells
LS-15532_S46_E1-50	4	7	5	14	11.19699460457017	3.7364705621070065	smarter_cells
LS-15532_S48_E1-50	4	7	5	11	11.02473882609691	3.912793155194908	smarter_cells
LS-15532_S49_E1-50	4	7	5	14	11.320178589177946	4.149309195342939	smarter_cells
LS-15532_S50_E1-50	4	7	5	14	11.158490315275909	5.190246029605291	smarter_cells
LS-15532_S51_E1-50	7	9	19	19	-9.252163873877633	9.413341265737742	smarter_cells
LS-15532_S52_E1-50	4	7	5	11	9.51256457691663	4.0389735719283895	smarter_cells
LS-15532_S53_E1-50	4	8	6	10	9.430589252179894	-0.6131663182648546	smarter_cells
LS-15532_S54_E1-50	4	7	5	14	11.913659842424659	3.5119572824044414	smarter_cells
LS-15532_S55_E1-50	7	9	19	19	-9.359873263128641	10.94370080777501	smarter_cells
LS-15532_S56_E1-50	7	9	19	19	-9.802073166373908	10.703879620978986	smarter_cells
LS-15532_S57_E1-50	4	7	5	14	11.332247778874407	5.04610071921318	smarter_cells
LS-15532_S58_E1-50	4	13	18	17	8.494045056546888	4.879891101805972	smarter_cells
LS-15532_S59_E1-50	4	8	6	10	10.235433147604308	0.950118165724731	smarter_cells
LS-15532_S60_E1-50	4	8	6	10	9.690862786497737	0.6904099845685101	smarter_cells
LS-15532_S61_E1-50	4	8	6	10	9.365549052713261	0.5645227364650898	smarter_cells
LS-15532_S62_E1-50	4	8	6	33	7.742140353630071	1.396199577267638	smarter_cells
LS-15532_S64_E1-50	4	7	5	14	11.334903308631914	4.715850345554854	smarter_cells
LS-15533_S01_E12-50	4	8	6	10	8.822511179232436	-1.2448182455459604	smarter_cells
LS-15533_S02_E12-50	4	8	6	10	9.139704658970055	-0.8105543046328216	smarter_cells
LS-15533_S03_E12-50	4	7	5	11	9.924377595702182	3.7060350873204713	smarter_cells
LS-15533_S04_E12-50	4	7	5	11	11.94467222239132	2.986082005966897	smarter_cells
LS-15533_S05_E12-50	4	7	5	11	11.61753347156325	3.084504620134844	smarter_cells
LS-15533_S07_E12-50	2	1	2	13	7.079766688343058	-1.6625355367675851	smarter_cells
LS-15533_S08_E12-50	7	9	19	19	-9.212131485196627	10.947926573630923	smarter_cells
LS-15533_S09_E12-50	4	8	6	10	9.141706596649263	0.019945252288432233	smarter_cells
LS-15533_S10_E12-50	2	1	2	6	7.177125578138567	-3.5287965920593063	smarter_cells
LS-15533_S11_E12-50	4	13	18	17	6.971041780018286	4.6148014523098695	smarter_cells
LS-15533_S12_E12-50	4	7	5	11	10.068870342683605	4.884623622095457	smarter_cells
LS-15533_S13_E12-50	4	8	6	10	8.884033203711802	0.20157308442707625	smarter_cells
LS-15533_S14_E12-50	4	7	5	14	10.383079623668376	5.599804565990748	smarter_cells
LS-15533_S15_E12-50	7	9	19	19	-9.21060545274101	9.116725963429577	smarter_cells
LS-15533_S16_E12-50	4	8	6	10	9.124595318943191	0.24568894511789807	smarter_cells
LS-15534_S01_E12-50	4	8	6	33	8.294733151177455	1.2211629404898376	smarter_cells
LS-15534_S02_E12-50	4	7	5	14	11.214746117405777	5.2072499903742	smarter_cells
LS-15534_S03_E12-50	2	1	2	13	6.771636139187558	-2.6988601690235137	smarter_cells
LS-15534_S04_E12-50	4	13	18	17	8.962948984805069	4.308962726002262	smarter_cells
LS-15534_S05_E12-50	4	7	5	11	9.305582741405368	5.078507983570701	smarter_cells
LS-15534_S06_E12-50	4	13	18	17	8.58088805517886	5.295286914159439	smarter_cells
LS-15534_S07_E12-50	4	7	5	14	11.80209709050552	4.472745723219216	smarter_cells
LS-15534_S08_E12-50	4	8	6	33	9.04068502411721	1.4198503636234665	smarter_cells
LS-15534_S09_E12-50	4	8	6	38	10.543978919722955	2.837761686297992	smarter_cells
LS-15534_S10_E12-50	4	8	6	10	8.982382258438209	-0.47319764840693546	smarter_cells
LS-15534_S11_E12-50	4	8	6	10	9.024680457296773	0.9191823939250788	smarter_cells
LS-15534_S12_E12-50	4	13	18	17	7.810123367944786	5.433298301711977	smarter_cells
LS-15534_S13_E12-50	4	7	5	11	10.08732189706676	4.444101764887058	smarter_cells
LS-15534_S14_E12-50	4	8	6	33	8.96595791549062	1.972577801888864	smarter_cells
SM-D9CZT_S01_E1-50	4	8	6	10	8.464724720250997	-0.09611742279979658	smarter_cells
SM-D9CZT_S04_E1-50	4	8	6	10	10.089209667531678	0.6828212602659038	smarter_cells
SM-D9CZT_S05_E1-50	2	1	2	13	6.127946030278874	-3.6932871902445616	smarter_cells
SM-D9CZT_S06_E1-50	2	1	7	2	4.582839286812294	-2.7189119574471654	smarter_cells
SM-D9CZT_S07_E1-50	1	4	3	22	6.169284040317	8.7955756447579	smarter_cells
SM-D9CZT_S08_E1-50	2	1	7	28	7.07635860926384	-1.5226553719425338	smarter_cells
SM-D9D6R_S01_E1-50	1	4	3	22	5.362123724538243	8.912696000301167	smarter_cells
SM-D9D6R_S02_E1-50	3	6	12	27	-8.381862684396367	-4.635622724469034	smarter_cells
SM-D9D6R_S04_E1-50	3	3	4	9	-8.798082272844464	-2.1870646222183505	smarter_cells
SM-D9D6R_S06_E1-50	7	9	17	42	-7.0488475998470905	11.440162139057	smarter_cells
SM-D9D6R_S07_E1-50	3	6	12	26	-10.708121662870232	-4.469501386979648	smarter_cells
SM-D9D6R_S08_E1-50	3	3	15	7	-11.512825364447858	-2.7962050026965786	smarter_cells
SM-D9D6R_S09_E1-50	3	3	15	7	-10.2764845596422	-3.317831954881103	smarter_cells
SM-D9D6R_S10_E1-50	3	3	15	7	-9.251672121437586	-2.6135102298161383	smarter_cells
SM-D9D6R_S13_E1-50	7	9	17	42	-7.732759941667806	11.626726720451993	smarter_cells
SM-D9D6R_S14_E1-50	3	6	12	27	-8.680636623021506	-4.816116190516131	smarter_cells
SM-D9D6R_S15_E1-50	3	6	23	37	-12.26901843168358	-5.143961047485137	smarter_cells
SM-D9D6R_S16_E1-50	3	6	12	27	-7.795315718795513	-4.621274626674639	smarter_cells
SM-D9D6R_S25_E1-50	3	6	23	37	-11.990729441339555	-5.205779698679778	smarter_cells
SM-D9D6R_S26_E1-50	3	3	15	7	-11.626826557369197	-2.45975298173354	smarter_cells
SM-D9D6R_S28_E1-50	1	4	3	5	6.494764947387141	8.212406990305785	smarter_cells
SM-D9D6R_S29_E1-50	3	3	4	4	-9.201810712917696	-1.8441049251140036	smarter_cells
SM-D9D6R_S30_E1-50	7	9	17	42	-7.448386242175613	11.797481772773189	smarter_cells
SM-D9D6R_S31_E1-50	3	3	15	7	-9.888045783412556	-3.631357375774968	smarter_cells
SM-D9D6R_S32_E1-50	3	3	4	4	-9.241624588739398	-1.37336934050092	smarter_cells
SM-D9D6R_S33_E1-50	1	4	3	22	6.094806765908386	10.367677529651935	smarter_cells
SM-D9D6R_S35_E1-50	3	6	12	26	-9.834764261866114	-5.672403866246773	smarter_cells
SM-D9D6R_S36_E1-50	3	6	21	16	-7.968279162777114	-6.205751281118813	smarter_cells
SM-D9D6R_S37_E1-50	1	4	3	22	4.704249344065359	10.05427548802845	smarter_cells
SM-D9D6R_S39_E1-50	1	4	14	32	3.1483496941686706	10.447334954841873	smarter_cells
SM-D9D7B_S01_E1-50	2	1	2	13	6.316726699024182	-2.900008910492381	smarter_cells
SM-D9D7B_S03_E1-50	2	1	7	2	5.86344359316085	-2.1419488348197557	smarter_cells
SM-D9D7B_S04_E1-50	7	9	19	19	-9.36788053539384	10.506248049404965	smarter_cells
SM-D9D7B_S06_E1-50	2	1	2	13	7.083372912491847	-2.6843950473248657	smarter_cells
SM-D9D7B_S07_E1-50	4	13	18	17	7.105281862617116	3.9274498974936627	smarter_cells
SM-D9D7B_S08_E1-50	4	7	5	14	10.627410423116805	5.322505034173902	smarter_cells
SM-D9D7B_S09_E1-50	4	7	5	11	9.094135018382318	3.9205359712157706	smarter_cells
SM-D9D7B_S10_E1-50	4	8	6	10	9.282224893371223	-0.568934572706174	smarter_cells
SM-D9D7B_S11_E1-50	4	8	6	33	9.47160902215981	2.362490499745724	smarter_cells
SM-D9D7B_S14_E1-50	2	1	7	2	6.2953427680547245	-2.391856245055909	smarter_cells
SM-D9D7B_S15_E1-50	4	8	6	33	8.530106407344812	2.084555175862703	smarter_cells
SM-D9D7B_S16_E1-50	3	3	24	41	-10.45557009416241	-0.922003628105522	smarter_cells
SM-D9D7G_S01_E1-50	2	1	7	28	6.511365062518447	0.0909953002552921	smarter_cells
SM-D9D7G_S02_E1-50	4	8	6	33	7.927829354700811	1.0186796132838971	smarter_cells
SM-D9D7G_S03_E1-50	4	7	5	14	11.318880138475762	4.813799955731887	smarter_cells
SM-D9D7G_S04_E1-50	4	8	6	10	8.316087909825733	-1.8198556645592199	smarter_cells
SM-D9D7G_S05_E1-50	2	1	7	2	5.408515844191144	-1.0246041844829001	smarter_cells
SM-D9D7G_S06_E1-50	2	1	2	13	6.713513629465571	-2.4495973449735864	smarter_cells
SM-D9D7G_S07_E1-50	4	8	6	10	8.5957176112884	-0.9157250254053554	smarter_cells
SM-D9D7G_S08_E1-50	4	7	5	14	11.165235945082955	3.9586959071896715	smarter_cells
SM-D9D7G_S09_E1-50	4	13	18	17	8.203713217707987	5.510953267189261	smarter_cells
SM-D9D7G_S10_E1-50	2	1	7	28	6.7493049731166055	-0.23252929345526813	smarter_cells
SM-D9D7G_S11_E1-50	2	1	2	6	6.6954294398523695	-3.8512284758935516	smarter_cells
SM-D9D7G_S12_E1-50	2	1	7	2	5.887937441056267	-1.1539820116586816	smarter_cells
SM-D9D7G_S14_E1-50	2	1	7	2	5.827558926546238	-1.1352414970682605	smarter_cells
SM-D9D7G_S15_E1-50	2	1	7	2	5.409098239015435	-1.591530986976505	smarter_cells
SM-D9D7G_S16_E1-50	2	1	7	2	4.823495478907977	-2.818995061372455	smarter_cells
SM-D9D7Q_S17_E1-50	4	13	18	17	7.396527377597613	4.223893504699723	smarter_cells
SM-D9D7Q_S18_E1-50	2	1	7	28	6.69979445890331	-1.1005799863397652	smarter_cells
SM-D9D7Q_S19_E1-50	2	1	7	28	5.929280119831349	-0.1900785497995335	smarter_cells
SM-D9D7Q_S20_E1-50	2	1	7	2	4.5539034159822736	-2.150487643776674	smarter_cells
SM-D9D7Q_S21_E1-50	2	1	2	6	7.286196121992676	-4.114383878710098	smarter_cells
SM-D9D7Q_S22_E1-50	2	1	7	2	5.153898846852376	-2.9782778706416275	smarter_cells
SM-D9D7Q_S23_E1-50	2	1	2	6	6.854760492299691	-4.561681464511578	smarter_cells
SM-D9D7Q_S24_E1-50	4	8	6	33	7.568757876735341	1.3618411103699757	smarter_cells
SM-D9D7Q_S25_E1-50	4	8	6	10	9.24026713621768	-0.5397216792470488	smarter_cells
SM-D9D7Q_S26_E1-50	4	7	5	11	9.837088392964436	4.101539175911393	smarter_cells
SM-D9D7Q_S27_E1-50	7	9	19	19	-9.290751881238354	11.089137557290366	smarter_cells
SM-D9D7Q_S28_E1-50	4	13	18	17	7.134348505707616	4.447095621023128	smarter_cells
SM-D9D7Q_S29_E1-50	2	1	7	2	5.5315348387402254	-2.9752140565089076	smarter_cells
SM-D9D7Q_S30_E1-50	2	1	7	2	4.340049617895191	-0.6538665566452533	smarter_cells
SM-D9D7Q_S31_E1-50	2	1	7	2	4.238381364713431	-0.9524740791227418	smarter_cells
SM-D9D7Q_S32_E1-50	2	1	7	28	7.154395766504981	-1.5645867157239497	smarter_cells
SM-D9D7V_S01_E1-50	5	2	1	18	6.809982795932125	-10.591345662527674	smarter_cells
SM-D9D7V_S02_E1-50	2	1	2	6	7.0603633446511	-4.8841390181155235	smarter_cells
SM-D9D7V_S04_E1-50	5	2	1	24	3.99810104354289	-11.767407105740752	smarter_cells
SM-D9D7V_S05_E1-50	5	2	9	23	4.406394102548151	-13.06955529484201	smarter_cells
SM-D9D7V_S06_E1-50	5	2	1	3	4.928933258320468	-12.546690889346841	smarter_cells
SM-D9D7V_S07_E1-50	2	1	7	2	5.915509940840361	-1.6498624533077713	smarter_cells
SM-D9D7V_S08_E1-50	5	2	1	36	7.219255381591861	-10.369810806621654	smarter_cells
SM-D9D7V_S10_E1-50	5	2	1	18	6.744819595698523	-10.490753048566141	smarter_cells
SM-D9D7V_S12_E1-50	5	2	1	18	5.433372195294	-11.421826107592395	smarter_cells
SM-D9D7V_S13_E1-50	2	1	2	6	6.065186508053999	-4.43875046211526	smarter_cells
SM-D9D7V_S14_E1-50	5	2	1	3	5.229446531775095	-10.730967044203785	smarter_cells
SM-D9D7V_S15_E1-50	5	2	1	18	5.862397033379694	-11.665569173030086	smarter_cells
SM-D9D7V_S16_E1-50	2	1	7	2	5.4542572572746275	-2.6723371775104123	smarter_cells
SM-D9D7V_S17_E1-50	5	2	1	36	5.635688888912221	-9.658796968498118	smarter_cells
SM-D9D7V_S18_E1-50	2	1	2	13	5.58294673192112	-3.813054736727959	smarter_cells
SM-D9D7V_S19_E1-50	5	2	1	3	4.987595126559395	-12.84597395316705	smarter_cells
SM-D9D7V_S20_E1-50	2	1	2	13	5.406426741231652	-3.6651832454310185	smarter_cells
SM-D9D7V_S21_E1-50	2	1	7	2	4.299334196242654	-0.8952592247013496	smarter_cells
SM-D9D7V_S22_E1-50	2	1	2	6	6.081419796661831	-5.138313467637045	smarter_cells
SM-D9D7V_S23_E1-50	2	1	7	28	6.780877750630822	-0.5626301907441978	smarter_cells
SM-D9D7V_S24_E1-50	5	2	1	3	5.640409278360732	-10.711446886480797	smarter_cells
SM-D9D7V_S25_E1-50	1	4	3	22	5.759034297449564	9.262910083806544	smarter_cells
SM-D9D7V_S26_E1-50	3	6	12	26	-9.550979296155644	-6.087772822675039	smarter_cells
SM-D9D7V_S27_E1-50	1	4	3	5	4.568586766703936	7.729724868921787	smarter_cells
SM-D9D7V_S29_E1-50	6	6	21	16	-7.972958581479569	-6.802313437783294	smarter_cells
SM-D9D7V_S31_E1-50	3	6	12	26	-10.410018146184589	-5.029911408098473	smarter_cells
SM-D9D7V_S32_E1-50	3	6	12	27	-8.530985164849186	-4.906598666190845	smarter_cells
SM-D9D7V_S33_E1-50	3	3	15	7	-10.53372325649566	-1.9823339202743857	smarter_cells
SM-D9D7V_S36_E1-50	3	3	4	9	-6.99894841061561	-1.782953920143469	smarter_cells
SM-D9D7V_S37_E1-50	1	4	14	32	3.364053503306698	10.546400569963872	smarter_cells
SM-D9D7V_S38_E1-50	3	6	12	26	-10.054918798167998	-5.790381244170842	smarter_cells
SM-D9D7V_S39_E1-50	7	9	17	30	-6.907945707708837	10.062417164823911	smarter_cells
SM-D9D7V_S40_E1-50	3	3	15	7	-11.370726079863749	-2.6669589718241804	smarter_cells
SM-D9D7V_S41_E1-50	1	4	3	22	5.488572420828762	10.386621523807872	smarter_cells
SM-D9D7V_S42_E1-50	1	4	3	29	3.7588989684067857	8.475542979453733	smarter_cells
SM-D9D7V_S44_E1-50	3	3	4	9	-6.820228935437899	-2.50175481263799	smarter_cells
SM-D9D7V_S45_E1-50	1	4	3	5	5.882632293638242	7.851165706090021	smarter_cells
SM-D9D7V_S46_E1-50	3	3	4	4	-8.512751959130007	-2.515869792637883	smarter_cells
SM-D9D7V_S47_E1-50	3	3	4	9	-7.42832181841537	-2.9085535583498894	smarter_cells
SM-D9D7V_S48_E1-50	3	6	12	27	-8.534068184462587	-5.384701706699303	smarter_cells
SM-D9D7V_S57_E1-50	3	3	4	4	-8.069214357990608	-2.801590245669652	smarter_cells
SM-D9D7V_S58_E1-50	3	3	4	9	-7.555937847248555	-2.7479448455373396	smarter_cells
SM-D9D7V_S59_E1-50	3	3	4	9	-7.153731275256024	-3.2973591794865134	smarter_cells
SM-D9D7V_S60_E1-50	3	6	12	26	-9.53021937240006	-5.811511262793612	smarter_cells
SM-D9D7V_S61_E1-50	3	3	15	7	-10.134948113823754	-1.4157957683974471	smarter_cells
SM-D9D7V_S62_E1-50	3	6	12	26	-10.311361552001834	-5.474241682264709	smarter_cells
SM-D9D7V_S63_E1-50	3	3	15	7	-10.137075629773268	-3.416765263471004	smarter_cells
SM-D9D7V_S64_E1-50	3	3	15	7	-10.237640913584402	-2.7872778378684884	smarter_cells
SM-D9D7V_S65_E1-50	3	3	4	9	-7.0195139052378765	-1.809889613267305	smarter_cells
SM-D9D7V_S66_E1-50	1	4	3	5	5.193388010706543	8.039390882226057	smarter_cells
SM-D9D7V_S67_E1-50	1	4	3	5	5.4019884676382635	8.104568238889213	smarter_cells
SM-D9D7V_S68_E1-50	3	3	15	7	-10.508697467680172	-2.6203666268569683	smarter_cells
SM-D9D7V_S69_E1-50	1	13	3	5	6.365224011862303	7.607672446444217	smarter_cells
SM-D9D7V_S70_E1-50	3	6	12	26	-8.40934868139332	-4.575668301793542	smarter_cells
SM-D9D7V_S71_E1-50	7	9	17	30	-6.756006854546046	10.035774413959603	smarter_cells
SM-D9D7V_S72_E1-50	1	4	3	5	5.5013503169160325	8.129310567497239	smarter_cells
SM-D9D7W_S02_E1-50	3	6	12	26	-10.220836699566442	-5.1773542762733635	smarter_cells
SM-D9D7W_S03_E1-50	1	4	14	32	4.491095764057876	9.859805289446305	smarter_cells
SM-D9D7W_S05_E1-50	1	5	8	1	2.772604419531607	8.569978175805659	smarter_cells
SM-D9D7W_S06_E1-50	3	6	12	27	-8.326842952690225	-4.381470316460782	smarter_cells
SM-D9D7W_S08_E1-50	3	3	24	41	-9.84664814499161	-2.2645765818977552	smarter_cells
SM-D9D7W_S09_E1-50	7	9	17	30	-7.026567385022824	10.766907654384548	smarter_cells
SM-D9D7W_S10_E1-50	3	6	12	26	-9.506095214635412	-6.005553368768844	smarter_cells
SM-D9D7W_S11_E1-50	1	4	3	22	5.622361025379922	8.817004379592277	smarter_cells
SM-D9D7W_S12_E1-50	1	4	3	5	4.857196852200395	7.40269873121624	smarter_cells
SM-D9D7W_S13_E1-50	3	3	4	9	-8.506918189332108	-2.988297179666334	smarter_cells
SM-D9D7W_S14_E1-50	3	3	15	7	-10.331683822898716	-1.8078731397255818	smarter_cells
SM-D9D7W_S15_E1-50	3	3	4	9	-7.144128854380011	-3.799822250171224	smarter_cells
SM-D9D7W_S16_E1-50	3	6	21	16	-8.271205179910462	-6.3601477153667565	smarter_cells
SM-D9D7W_S17_E1-50	1	4	3	5	5.258355758226795	7.179311457639391	smarter_cells
SM-D9D7W_S18_E1-50	1	4	3	29	3.1433772459282294	10.34137626735691	smarter_cells
SM-D9D7W_S19_E1-50	7	9	17	42	-7.404322625989901	11.800070717191264	smarter_cells
SM-D9D7W_S22_E1-50	3	3	15	7	-9.844644143774131	-3.4960189775582804	smarter_cells
SM-D9D7W_S23_E1-50	3	6	23	37	-11.745496746186129	-5.407667560391553	smarter_cells
SM-D9D7W_S24_E1-50	1	4	3	22	5.581452893881589	9.512349274977069	smarter_cells
SM-D9D7W_S41_E1-50	1	4	3	22	5.826511741176599	8.780246877479263	smarter_cells
SM-D9D7W_S42_E1-50	1	4	3	22	5.718525242743599	8.560696073675606	smarter_cells
SM-D9D7W_S43_E1-50	7	9	17	42	-7.475477361686569	11.587836437832586	smarter_cells
SM-D9D7W_S45_E1-50	3	3	4	4	-9.460774223753216	-1.365124815656026	smarter_cells
SM-D9D7W_S46_E1-50	1	4	14	32	3.52462129313086	10.155157728786795	smarter_cells
SM-D9D7W_S47_E1-50	1	4	3	5	5.116470937638963	7.096615221104879	smarter_cells
SM-D9D7W_S48_E1-50	3	3	15	7	-11.23353445788103	-2.2570606881449295	smarter_cells
SM-D9D7W_S49_E1-50	3	3	4	4	-8.428607573098423	-2.8376456926446147	smarter_cells
SM-D9D7W_S50_E1-50	1	4	3	29	3.57896333433975	10.031339578975922	smarter_cells
SM-D9D7W_S51_E1-50	3	3	15	7	-8.984200089088047	-2.1358678589254723	smarter_cells
SM-D9D7W_S52_E1-50	3	6	12	26	-10.4497697908381	-4.746157619056052	smarter_cells
SM-D9D7W_S53_E1-50	1	4	14	32	2.241559765977476	10.699042176113444	smarter_cells
SM-D9D7W_S54_E1-50	3	3	4	9	-7.282792744831756	-3.4475956924865008	smarter_cells
SM-D9D7W_S55_E1-50	3	6	12	27	-9.003961134581507	-4.131655252088325	smarter_cells
SM-D9D7W_S56_E1-50	1	4	3	29	3.7748395891446798	9.294018857439807	smarter_cells
SM-D9D7W_S65_E1-50	3	6	12	26	-10.255759300976134	-5.557910113984822	smarter_cells
SM-D9D7W_S66_E1-50	1	4	3	29	3.9529328048828254	9.276838615355098	smarter_cells
SM-D9D7W_S67_E1-50	1	4	3	22	5.49465300264183	8.924847376752806	smarter_cells
SM-D9D7W_S68_E1-50	7	9	17	30	-6.749673186065839	10.212879396522558	smarter_cells
SM-D9D7W_S69_E1-50	1	4	3	22	5.351571542587718	9.374407350359913	smarter_cells
SM-D9D7W_S70_E1-50	3	3	15	7	-10.133311637135288	-3.804551618752723	smarter_cells
SM-D9D7W_S71_E1-50	1	4	14	32	3.551266735601679	9.378060507095721	smarter_cells
SM-D9D7W_S72_E1-50	1	4	14	32	2.4136197087226217	9.150287814589563	smarter_cells
SM-D9D7W_S73_E1-50	5	2	1	3	5.879123043704939	-11.806371316307398	smarter_cells
SM-D9D7W_S74_E1-50	5	2	1	36	7.131047867249716	-10.190980715618005	smarter_cells
SM-D9D7W_S75_E1-50	5	2	9	24	3.1265582339224887	-11.092762951043447	smarter_cells
SM-D9D7W_S76_E1-50	5	2	1	18	5.981233656626579	-11.309750354738984	smarter_cells
SM-D9D7W_S77_E1-50	5	2	9	23	4.606387198855758	-13.086737283474017	smarter_cells
SM-D9D7W_S78_E1-50	5	2	9	24	3.290785400184747	-11.158762671352024	smarter_cells
SM-D9D7W_S79_E1-50	5	2	1	3	4.613682047910625	-11.929449180517574	smarter_cells
SM-D9D7W_S80_E1-50	5	2	1	3	6.122302648088802	-12.372413688293024	smarter_cells
SM-D9D7W_S81_E1-50	5	2	1	3	4.7071256119841856	-11.666810982260316	smarter_cells
SM-D9D7W_S82_E1-50	5	2	1	3	5.267795934052947	-11.499108650571175	smarter_cells
SM-D9D7W_S83_E1-50	5	2	1	18	6.028534033872684	-11.353662792740032	smarter_cells
SM-D9D7W_S84_E1-50	5	2	1	3	5.066016174532234	-11.933947411677497	smarter_cells
SM-D9D7W_S85_E1-50	5	2	9	24	3.0634281697936143	-11.306476301003693	smarter_cells
SM-D9D7W_S86_E1-50	5	2	9	23	2.9854520083892737	-13.216779560893315	smarter_cells
SM-D9D7W_S87_E1-50	5	2	1	18	7.119481051962906	-10.395878501548196	smarter_cells
SM-D9D7W_S88_E1-50	4	13	18	17	8.234967096705049	4.845410194775502	smarter_cells
SM-D9D7W_S89_E1-50	5	2	1	3	5.455744815983784	-12.237391813602708	smarter_cells
SM-D9D7W_S90_E1-50	5	2	9	23	4.205823383017399	-13.573434017229962	smarter_cells
SM-D9D7W_S91_E1-50	5	2	9	23	3.1353358146403294	-13.4648036028116	smarter_cells
SM-D9D7W_S92_E1-50	5	2	9	23	3.989536770671935	-13.20442871696319	smarter_cells
SM-D9D7W_S93_E1-50	5	2	1	39	7.053078585856524	-12.042060199604396	smarter_cells
SM-D9D7W_S94_E1-50	5	2	9	23	5.223043972706124	-13.347197382028725	smarter_cells
SM-D9D7W_S95_E1-50	5	2	1	39	7.469509620298423	-12.054557671338017	smarter_cells
SM-D9D7W_S96_E1-50	5	2	1	3	4.899922189180894	-11.513105029368212	smarter_cells
SM-D9D7X_S41_E1-50	3	6	12	27	-8.95502849722777	-3.944626447005695	smarter_cells
SM-D9D7X_S42_E1-50	1	4	3	22	5.341372563528149	9.955437061341081	smarter_cells
SM-D9D7X_S44_E1-50	1	4	3	22	6.036647387073497	9.24086274262113	smarter_cells
SM-D9D7X_S45_E1-50	1	4	3	29	3.621771250494448	9.246260036358358	smarter_cells
SM-D9D7X_S46_E1-50	3	3	24	41	-9.09417946186807	-3.003455495589476	smarter_cells
SM-D9D7X_S47_E1-50	3	3	4	4	-9.653111659363852	-1.3003631586933662	smarter_cells
SM-D9D7X_S48_E1-50	3	3	15	7	-11.146211059210561	-2.255468068011585	smarter_cells
SM-D9D7X_S49_E1-50	3	6	23	37	-11.197289272743426	-5.271112159408048	smarter_cells
SM-D9D7X_S50_E1-50	3	6	12	27	-9.080469058690769	-3.776473677991162	smarter_cells
SM-D9D7X_S51_E1-50	1	4	3	5	4.849938010176508	7.864442291223909	smarter_cells
SM-D9D7X_S52_E1-50	1	4	3	5	5.142884482008633	7.407787820497099	smarter_cells
SM-D9D7X_S53_E1-50	3	3	4	9	-7.652143216735816	-2.1317966433065467	smarter_cells
SM-D9D7X_S54_E1-50	3	3	15	7	-10.446277558220848	-3.733470437107418	smarter_cells
SM-D9D7X_S55_E1-50	7	9	17	30	-6.982258473001529	10.132332770009699	smarter_cells
SM-D9D7X_S57_E1-50	1	4	3	5	4.596147803516434	7.633013656450103	smarter_cells
SM-D9D7X_S59_E1-50	3	3	4	9	-7.233491715476081	-2.7768980439466664	smarter_cells
SM-D9D7X_S60_E1-50	3	3	15	7	-11.12779394358511	-2.9163321420307966	smarter_cells
SM-D9D7X_S61_E1-50	3	3	4	9	-7.99040154411201	-1.7315694959697443	smarter_cells
SM-D9D7X_S62_E1-50	3	6	12	26	-9.105566715194154	-5.17169379400851	smarter_cells
SM-D9D7X_S63_E1-50	1	4	3	29	4.576590751502723	8.584867819644671	smarter_cells
SM-D9D7X_S73_E1-50	5	2	1	3	4.505984960686457	-12.851966651604489	smarter_cells
SM-D9D7X_S74_E1-50	5	2	1	18	5.716540023199745	-10.739608927527875	smarter_cells
SM-D9D7X_S75_E1-50	5	2	1	18	6.4560681341910895	-11.127289247350015	smarter_cells
SM-D9D7X_S76_E1-50	2	1	7	2	4.559910785639896	-0.9533928608272993	smarter_cells
SM-D9D7X_S77_E1-50	5	2	9	23	3.7437280697558317	-13.036129759886828	smarter_cells
SM-D9D7X_S78_E1-50	5	2	1	18	6.273931416636883	-10.965681023651324	smarter_cells
SM-D9D7X_S79_E1-50	5	2	1	18	5.415934768796727	-10.325002139172145	smarter_cells
SM-D9D7X_S80_E1-50	5	2	9	23	5.097194189867901	-13.325798641873147	smarter_cells
SM-D9D7X_S81_E1-50	5	2	1	18	7.063259283555418	-10.703111146678925	smarter_cells
SM-D9D7X_S82_E1-50	5	2	9	23	3.3574419225316876	-12.97199391886843	smarter_cells
SM-D9D7X_S83_E1-50	5	2	9	24	3.5082605161906417	-10.798496263235476	smarter_cells
SM-D9D7X_S84_E1-50	5	2	1	18	5.883735392881687	-10.527728084639383	smarter_cells
SM-D9D7X_S85_E1-50	5	2	1	39	7.216084710408966	-11.200620783792319	smarter_cells
SM-D9D7X_S86_E1-50	5	2	1	18	5.351765620010361	-11.43424182827974	smarter_cells
SM-D9D7X_S87_E1-50	5	2	1	18	6.680989734160359	-10.45838256258907	smarter_cells
SM-D9D7X_S88_E1-50	5	2	9	23	3.109720235438312	-12.61081354889998	smarter_cells
SM-D9D7X_S89_E1-50	5	2	9	23	5.433693521387825	-13.052161519703269	smarter_cells
SM-D9D7X_S90_E1-50	5	2	1	18	5.114981282357356	-11.312002082777697	smarter_cells
SM-D9D7X_S91_E1-50	5	2	1	18	5.271008478344453	-11.679940805850098	smarter_cells
SM-D9D7X_S92_E1-50	5	2	1	18	5.893206769564113	-11.904884601609934	smarter_cells
SM-D9D7X_S93_E1-50	5	2	1	3	6.483700517825878	-12.401379885539948	smarter_cells
SM-D9D7X_S94_E1-50	3	3	4	4	-9.554962506099283	-3.0142120224667823	smarter_cells
SM-D9D7X_S95_E1-50	5	2	9	23	5.892890667879452	-13.081931527419133	smarter_cells
SM-D9D7X_S96_E1-50	5	2	9	23	3.2843025748185632	-12.800145559938304	smarter_cells
SM-D9D7Y_S01_E1-50	5	2	1	18	6.780698421483208	-10.751383261796066	smarter_cells
SM-D9D7Y_S02_E1-50	7	9	19	19	-9.399924570018824	10.807892756980749	smarter_cells
SM-D9D7Y_S03_E1-50	2	1	2	6	6.303757964869302	-4.061134331055383	smarter_cells
SM-D9D7Y_S04_E1-50	5	2	1	39	7.120261466163296	-12.245116419734586	smarter_cells
SM-D9D7Y_S06_E1-50	5	2	1	3	6.024380541716248	-12.16282142612001	smarter_cells
SM-D9D7Y_S08_E1-50	2	1	2	6	7.898775549800635	-2.8819118397920818	smarter_cells
SM-D9D7Y_S09_E1-50	2	1	7	2	5.920448110415765	-1.3858397865656211	smarter_cells
SM-D9D7Y_S10_E1-50	2	1	2	6	6.795715101448893	-4.538299475304753	smarter_cells
SM-D9D7Y_S11_E1-50	2	1	2	6	6.092929873390604	-3.2588800890461185	smarter_cells
SM-D9D7Y_S12_E1-50	5	2	1	18	5.192098331352021	-11.278681012351045	smarter_cells
SM-D9D7Y_S14_E1-50	2	1	7	2	4.362119692446325	-1.781250914138009	smarter_cells
SM-D9D7Y_S15_E1-50	4	8	6	33	8.080684260495334	1.1291246523590273	smarter_cells
SM-D9D7Y_S18_E1-50	1	4	3	22	6.09516095940513	9.48172743339197	smarter_cells
SM-D9D7Y_S19_E1-50	1	4	3	29	4.447790404648713	9.299391791649168	smarter_cells
SM-D9D7Y_S20_E1-50	3	3	15	7	-10.256486499886925	-3.7854044362816928	smarter_cells
SM-D9D7Y_S21_E1-50	3	3	4	4	-8.872138304579092	-3.2199687119461022	smarter_cells
SM-D9D7Y_S22_E1-50	3	6	23	37	-10.207572260329403	-4.683692679650864	smarter_cells
SM-D9D7Y_S24_E1-50	1	4	3	29	4.265819590034332	9.541423591556324	smarter_cells
SM-D9D7Y_S25_E1-50	1	4	3	22	4.968140199125682	10.278690362699502	smarter_cells
SM-D9D7Y_S28_E1-50	3	6	12	27	-8.93284396651773	-4.087873982116661	smarter_cells
SM-D9D7Y_S29_E1-50	3	6	12	26	-10.333567676416124	-5.368370798865558	smarter_cells
SM-D9D7Y_S30_E1-50	3	3	15	7	-11.114861226245681	-1.9822975337670319	smarter_cells
SM-D9D7Y_S31_E1-50	1	4	3	29	4.850580024469983	9.300474243592344	smarter_cells
SM-D9D7Y_S32_E1-50	3	3	15	7	-9.670845107483858	-3.2270362509911132	smarter_cells
SM-D9D7Y_S33_E1-50	3	3	15	7	-10.488921717944823	-3.5805721868394333	smarter_cells
SM-D9D7Y_S36_E1-50	3	3	4	9	-7.465169896387352	-1.3174319628800224	smarter_cells
SM-D9D7Y_S37_E1-50	1	4	3	5	4.203324346787139	8.462630869109761	smarter_cells
SM-D9D7Y_S40_E1-50	3	6	12	26	-9.474678426530195	-6.09376398996805	smarter_cells
SM-D9D84_S01_E1-50	2	1	7	13	6.292796424450707	-2.4294979683103537	smarter_cells
SM-D9D84_S02_E1-50	2	1	2	6	7.29516777935642	-4.309331177566872	smarter_cells
SM-D9D84_S03_E1-50	2	1	2	13	6.75969483178849	-2.5896377665623174	smarter_cells
SM-D9D84_S04_E1-50	4	7	5	11	11.913220778943177	2.623574327430798	smarter_cells
SM-D9D84_S05_E1-50	2	1	2	13	5.624354989510435	-3.3852861644248713	smarter_cells
SM-D9D84_S06_E1-50	4	13	18	17	8.050835102414634	5.091833687915143	smarter_cells
SM-D9D84_S07_E1-50	2	1	2	6	6.509111640954842	-4.2028965054971	smarter_cells
SM-D9D84_S08_E1-50	4	8	6	38	10.690645269929952	2.0671151529748415	smarter_cells
SM-D9D84_S09_E1-50	5	2	1	3	5.47920320239387	-10.316867059952754	smarter_cells
SM-D9D84_S11_E1-50	2	1	2	6	6.294391977789916	-4.302765265743449	smarter_cells
SM-D9D84_S12_E1-50	2	1	2	6	5.449591067455796	-3.9949311938311896	smarter_cells
SM-D9D84_S13_E1-50	2	1	7	2	5.0199854143360385	-2.832804260132364	smarter_cells
SM-D9D84_S14_E1-50	2	1	2	6	5.86556512662231	-3.9781052935726873	smarter_cells
SM-D9D84_S15_E1-50	2	1	2	13	7.5305637343223175	-2.4439794992673205	smarter_cells
SM-D9D84_S16_E1-50	4	13	18	17	7.19477948352836	3.6625936852726846	smarter_cells
SM-D9D84_S17_E1-50	2	1	2	13	7.480352672391447	-2.729821533762087	smarter_cells
SM-D9D84_S18_E1-50	2	1	2	13	7.641296316117367	-2.722308086394283	smarter_cells
SM-D9D84_S19_E1-50	4	7	5	11	11.90062855206748	2.1736876672083754	smarter_cells
SM-D9D84_S20_E1-50	2	1	2	6	5.690987603192038	-3.4186727178189478	smarter_cells
SM-D9D84_S22_E1-50	2	1	2	13	7.366107083773295	-2.4806930890465813	smarter_cells
SM-D9D84_S23_E1-50	2	1	7	2	5.325237780626271	-3.250983771275896	smarter_cells
SM-D9D84_S24_E1-50	2	1	2	6	7.047128252794217	-4.1874597018933235	smarter_cells
SM-D9D85_S01_E1-50	2	1	7	13	6.5906316776133815	-1.8500105053400906	smarter_cells
SM-D9D85_S02_E1-50	5	2	1	18	6.961036380983011	-10.29805972977915	smarter_cells
SM-D9D85_S03_E1-50	5	2	9	23	2.6682452805239816	-12.744981526388278	smarter_cells
SM-D9D85_S04_E1-50	5	2	1	3	5.027983733841743	-11.915449075409946	smarter_cells
SM-D9D85_S05_E1-50	5	2	1	3	5.018156418309241	-11.236319416046296	smarter_cells
SM-D9D85_S06_E1-50	5	2	1	39	7.861291573603357	-11.93052007304321	smarter_cells
SM-D9D85_S07_E1-50	5	2	9	23	3.151810339407195	-13.170427557514358	smarter_cells
SM-D9D85_S08_E1-50	5	2	1	18	5.5098669315008015	-10.651242786616256	smarter_cells
SM-D9D85_S12_E1-50	5	2	9	23	5.067980370191954	-13.155922382146121	smarter_cells
SM-D9D85_S14_E1-50	5	2	1	3	6.297548799147142	-12.198555452213924	smarter_cells
SM-D9D85_S15_E1-50	5	2	1	3	5.029782675470961	-11.858161073328287	smarter_cells
SM-D9D85_S25_E1-50	5	2	9	23	4.570801677467541	-13.419771271223729	smarter_cells
SM-D9D85_S26_E1-50	5	2	1	3	5.158729308602816	-11.795079453318946	smarter_cells
SM-D9D85_S29_E1-50	5	2	1	18	6.209282367326772	-10.852557830104814	smarter_cells
SM-D9D85_S30_E1-50	5	2	9	36	4.052503633957362	-10.088539338761027	smarter_cells
SM-D9D85_S32_E1-50	5	2	1	3	5.7668969208454435	-11.66004445175438	smarter_cells
SM-D9D85_S33_E1-50	3	6	12	26	-10.31831767969848	-5.333671304459652	smarter_cells
SM-D9D85_S36_E1-50	3	3	24	41	-9.601745573899077	-3.0160750603666293	smarter_cells
SM-D9D85_S37_E1-50	3	3	4	9	-6.981130732106919	-3.1361780383385254	smarter_cells
SM-D9D85_S38_E1-50	3	6	23	37	-9.27220059310231	-5.868842595654276	smarter_cells
SM-D9D85_S39_E1-50	3	3	4	4	-8.247987807004687	-2.6291975608628086	smarter_cells
SM-D9D85_S40_E1-50	3	6	23	37	-12.103300363790103	-5.154320222519957	smarter_cells
SM-D9D85_S41_E1-50	3	6	23	37	-11.82184586338476	-5.612927535815599	smarter_cells
SM-D9D85_S42_E1-50	1	4	3	5	5.421812611440738	7.286315790744979	smarter_cells
SM-D9D85_S43_E1-50	3	6	12	26	-9.82049478624166	-6.3293050942405	smarter_cells
SM-D9D85_S44_E1-50	3	3	15	7	-10.505507277857047	-1.666330072276388	smarter_cells
SM-D9D85_S45_E1-50	3	3	15	7	-10.989521159011202	-2.47696130909536	smarter_cells
SM-D9D85_S46_E1-50	3	3	4	4	-8.407261491576675	-2.5636273811288603	smarter_cells
SM-D9D85_S47_E1-50	3	3	4	9	-7.982758013056104	-1.6844199691115895	smarter_cells
SM-D9D85_S48_E1-50	3	6	23	37	-10.87051325833932	-5.556003642952468	smarter_cells
SM-D9D85_S49_E1-50	7	9	17	42	-7.292439540304781	11.575876408946773	smarter_cells
SM-D9D85_S50_E1-50	3	6	12	26	-9.267033185163003	-4.9930661128922615	smarter_cells
SM-D9D85_S51_E1-50	1	4	3	5	4.791399283838675	8.304695296399919	smarter_cells
SM-D9D85_S53_E1-50	3	6	21	16	-7.968200063155172	-6.694832883974638	smarter_cells
SM-D9D85_S54_E1-50	3	3	15	7	-9.823889623819879	-3.519885475873856	smarter_cells
SM-D9D85_S55_E1-50	1	4	3	5	5.796743920539569	7.611933971134709	smarter_cells
SM-D9D85_S56_E1-50	1	4	3	29	4.757155174491435	8.780818114999338	smarter_cells
SM-D9D86_S03_E1-50	1	4	3	5	4.679929976890089	7.169312584293312	smarter_cells
SM-D9D86_S04_E1-50	3	3	15	7	-10.707277375774137	-1.7591078515297849	smarter_cells
SM-D9D86_S05_E1-50	1	4	3	29	3.4573275433284083	10.371420368239804	smarter_cells
SM-D9D86_S07_E1-50	1	4	3	5	4.842440175954263	8.329328701908372	smarter_cells
SM-D9D86_S08_E1-50	3	3	4	4	-8.323228707310292	-3.0872314013431077	smarter_cells
SM-D9D86_S09_E1-50	7	9	17	42	-7.764896900304809	11.823560139780586	smarter_cells
SM-D9D86_S10_E1-50	3	3	15	7	-9.239907351350611	-3.2672429641807987	smarter_cells
SM-D9D86_S11_E1-50	1	4	3	22	5.083156289451711	10.006872645847475	smarter_cells
SM-D9D86_S12_E1-50	3	3	15	7	-10.693418040546922	-2.9587117387011137	smarter_cells
SM-D9D86_S14_E1-50	3	6	12	26	-9.735667037287184	-6.560809744792663	smarter_cells
SM-D9D86_S16_E1-50	3	3	15	7	-10.628530508866236	-3.773233364365032	smarter_cells
SM-D9D86_S17_E1-50	7	9	17	30	-6.934636197390977	10.671362859540142	smarter_cells
SM-D9D86_S18_E1-50	7	9	17	42	-7.063678909228273	11.404256965705306	smarter_cells
SM-D9D86_S20_E1-50	3	3	24	41	-9.585669748613617	-2.6764734506750485	smarter_cells
SM-D9D86_S21_E1-50	3	6	12	26	-10.695103921176495	-4.243907106314873	smarter_cells
SM-D9D86_S34_E1-50	1	4	3	22	5.312648867743075	9.651433309476323	smarter_cells
SM-D9D86_S35_E1-50	3	3	4	9	-7.686462406983539	-2.0879585350814147	smarter_cells
SM-D9D86_S36_E1-50	3	3	4	9	-8.348523350411224	-2.794422678853646	smarter_cells
SM-D9D86_S37_E1-50	3	3	15	7	-10.722199517394502	-1.8004237569977173	smarter_cells
SM-D9D86_S38_E1-50	3	3	4	9	-8.34748735361736	-2.393725932915047	smarter_cells
SM-D9D86_S39_E1-50	3	6	12	26	-10.739910631346294	-4.466073110257101	smarter_cells
SM-D9D86_S40_E1-50	3	3	4	4	-8.373446358589629	-1.6210302824471492	smarter_cells
SM-D9D87_S01_E1-50	3	6	12	27	-8.660255343349817	-5.480276248291951	smarter_cells
SM-D9D87_S02_E1-50	3	3	4	9	-7.334219841497128	-2.3419095897660775	smarter_cells
SM-D9D87_S03_E1-50	3	6	12	26	-9.535701619714487	-5.870225500373821	smarter_cells
SM-D9D87_S05_E1-50	3	3	4	4	-8.43587495714755	-2.933863071730802	smarter_cells
SM-D9D87_S06_E1-50	1	4	3	5	6.1138663567618785	8.36631999287119	smarter_cells
SM-D9D87_S07_E1-50	3	3	4	9	-8.150569942774538	-3.048298777560547	smarter_cells
SM-D9D87_S09_E1-50	3	3	15	7	-10.245260011589078	-2.6885734682262994	smarter_cells
SM-D9D87_S10_E1-50	3	3	15	7	-10.011635327765566	-1.846165886257481	smarter_cells
SM-D9D87_S11_E1-50	3	3	15	7	-10.71146321058832	-3.50476242415902	smarter_cells
SM-D9D87_S12_E1-50	3	6	12	26	-9.16003414045625	-5.602855531543982	smarter_cells
SM-D9D87_S13_E1-50	1	4	3	5	6.313849022734958	7.979745598538126	smarter_cells
SM-D9D87_S16_E1-50	1	4	14	32	3.0854585254519087	9.605854527914444	smarter_cells
SM-D9D87_S17_E1-50	3	3	15	7	-10.467823608097108	-2.4163657821721904	smarter_cells
SM-D9D87_S18_E1-50	1	4	3	22	5.669983456715901	10.249361148632023	smarter_cells
SM-D9D87_S19_E1-50	3	6	12	27	-8.384625258613827	-4.98580194122042	smarter_cells
SM-D9D87_S21_E1-50	3	3	4	9	-7.281089197830053	-3.521087606031947	smarter_cells
SM-D9D87_S23_E1-50	1	4	3	5	3.883844899020362	7.404419919530308	smarter_cells
SM-D9D87_S24_E1-50	1	4	3	29	3.771398258771621	9.148805820942743	smarter_cells
SM-D9D87_S26_E1-50	3	6	23	37	-8.38286681424416	-3.788290784870392	smarter_cells
SM-D9D87_S30_E1-50	3	3	15	7	-10.15042880040309	-2.2643828126953607	smarter_cells
SM-D9D87_S32_E1-50	1	4	3	29	4.1413454050353495	10.173882706955505	smarter_cells
SM-D9D8C_S01_E1-50	2	1	2	13	6.960590665523136	-1.8721744739735715	smarter_cells
SM-D9D8C_S02_E1-50	5	2	1	18	6.313800888364158	-10.894486054753441	smarter_cells
SM-D9D8C_S06_E1-50	2	1	2	6	6.424712297943507	-3.899563331565967	smarter_cells
SM-D9D8C_S09_E1-50	5	2	1	3	5.479588901124345	-10.517154228179452	smarter_cells
SM-D9D8C_S10_E1-50	2	1	7	28	5.329104054516765	-0.33165362982739194	smarter_cells
SM-D9D8C_S11_E1-50	5	2	1	3	6.367902633238095	-11.250341442603645	smarter_cells
SM-D9D8C_S13_E1-50	5	2	1	36	5.910598000275506	-10.26080263755645	smarter_cells
SM-D9D8C_S14_E1-50	5	2	1	3	5.701758413580941	-11.861093122112475	smarter_cells
SM-D9D8C_S15_E1-50	5	2	1	3	5.574467513159133	-10.135424716161982	smarter_cells
SM-D9D8C_S16_E1-50	5	2	1	39	7.293693219491687	-12.006331194377399	smarter_cells
SM-D9D8C_S17_E1-50	4	13	18	17	6.419663107815749	4.602941232936293	smarter_cells
SM-D9D8C_S18_E1-50	2	1	7	2	5.268797910678387	-1.5927249419593597	smarter_cells
SM-D9D8C_S19_E1-50	5	2	1	18	5.970882223764154	-11.770294485972661	smarter_cells
SM-D9D8C_S21_E1-50	5	2	1	3	5.775983731135175	-10.029255159798307	smarter_cells
SM-D9D8C_S22_E1-50	2	1	2	6	5.7726227683414395	-4.432978780370589	smarter_cells
SM-D9D8C_S23_E1-50	5	2	1	18	6.330220812432352	-10.05393245741224	smarter_cells
SM-D9D8C_S24_E1-50	1	4	14	32	2.963915107641834	10.428282739289937	smarter_cells
SM-D9D8C_S81_E1-50	5	2	9	23	4.3663414703829195	-13.618684899025522	smarter_cells
SM-D9D8C_S82_E1-50	5	2	9	23	3.749462202858626	-13.986494045590852	smarter_cells
SM-D9D8C_S83_E1-50	5	2	1	3	5.502814324937559	-12.682429922914974	smarter_cells
SM-D9D8C_S84_E1-50	5	2	1	36	5.663497328775918	-9.361204051577797	smarter_cells
SM-D9D8C_S85_E1-50	5	2	1	39	7.613473736630022	-12.005239041479804	smarter_cells
SM-D9D8C_S86_E1-50	5	2	9	24	3.2167242079405236	-11.425358392463897	smarter_cells
SM-D9D8C_S87_E1-50	5	2	1	3	5.432737670896155	-10.453908296326306	smarter_cells
SM-D9D8C_S88_E1-50	5	2	1	39	7.272588202707454	-12.12915667872771	smarter_cells
SM-D9D8C_S89_E1-50	5	2	1	3	5.033311868389797	-11.52683631050991	smarter_cells
SM-D9D8C_S90_E1-50	5	2	1	39	7.316576927752466	-11.953509533056797	smarter_cells
SM-D9D8C_S91_E1-50	5	2	9	23	3.8807240694038616	-13.874977753553733	smarter_cells
SM-D9D8C_S92_E1-50	5	2	9	23	4.463818412733359	-13.34069714949126	smarter_cells
SM-D9D8C_S93_E1-50	5	2	9	23	3.4691780311094287	-13.779292455500382	smarter_cells
SM-D9D8C_S94_E1-50	5	2	1	3	4.5407327302647	-12.663597188425394	smarter_cells
SM-D9D8C_S95_E1-50	5	2	1	39	6.60461356135353	-11.926807024106903	smarter_cells
SM-D9D8C_S96_E1-50	5	2	9	23	3.672554577844344	-13.840901900215352	smarter_cells
SM-D9D8D_S01_E1-50	3	6	12	26	-9.323449109468255	-5.185402501292539	smarter_cells
SM-D9D8D_S02_E1-50	3	3	15	7	-10.693263833244236	-1.9605471510041004	smarter_cells
SM-D9D8D_S03_E1-50	7	9	17	42	-7.173085849047825	11.408292792444126	smarter_cells
SM-D9D8D_S04_E1-50	3	6	12	26	-10.393534133542108	-5.005781762548141	smarter_cells
SM-D9D8D_S05_E1-50	3	3	4	9	-6.695767959682622	-2.6134567873151355	smarter_cells
SM-D9D8D_S06_E1-50	3	3	15	7	-9.913312044668716	-3.4000294860725764	smarter_cells
SM-D9D8D_S07_E1-50	3	6	23	37	-10.465252183227852	-4.593562618018838	smarter_cells
SM-D9D8D_S08_E1-50	3	6	12	26	-9.80609431919493	-5.850905469561744	smarter_cells
SM-D9D8D_S09_E1-50	3	3	4	9	-8.569463047091592	-2.726008428534646	smarter_cells
SM-D9D8D_S10_E1-50	3	3	15	7	-10.217048351036837	-3.049410036623036	smarter_cells
SM-D9D8D_S11_E1-50	3	3	15	7	-10.398360190926713	-2.0602126085812875	smarter_cells
SM-D9D8D_S12_E1-50	1	4	3	29	4.6497342317514905	8.806964761755232	smarter_cells
SM-D9D8D_S13_E1-50	1	4	3	29	4.615371597442519	8.410771815227399	smarter_cells
SM-D9D8D_S14_E1-50	1	4	14	32	4.479880276610506	9.686007051188566	smarter_cells
SM-D9D8D_S15_E1-50	1	5	16	12	1.7917920089799115	9.198890509078552	smarter_cells
SM-D9D8D_S16_E1-50	3	3	4	9	-7.570526546811903	-3.887387044602389	smarter_cells
SM-D9D8D_S17_E1-50	3	3	15	7	-10.57506103257643	-3.27223989277307	smarter_cells
SM-D9D8D_S18_E1-50	3	6	21	16	-8.295055197367253	-5.70917574203587	smarter_cells
SM-D9D8D_S19_E1-50	3	3	15	7	-10.14777811864024	-2.6480461063547165	smarter_cells
SM-D9D8D_S20_E1-50	1	4	14	32	4.035773502567908	10.113732919362656	smarter_cells
SM-D9D8D_S21_E1-50	1	4	3	29	4.015235909369956	10.665120102919134	smarter_cells
SM-D9D8D_S22_E1-50	3	3	4	9	-6.482250448733152	-2.637292963841414	smarter_cells
SM-D9D8D_S23_E1-50	3	3	4	9	-7.646030744062383	-2.8505288255650942	smarter_cells
SM-D9D8E_S33_E1-50	5	2	1	18	6.846380582337855	-10.409133424728306	smarter_cells
SM-D9D8E_S34_E1-50	2	1	2	6	5.680485873555413	-3.3503756555857445	smarter_cells
SM-D9D8E_S35_E1-50	5	2	1	18	6.513804870882457	-10.588844062977829	smarter_cells
SM-D9D8E_S36_E1-50	5	2	1	39	6.480637468351326	-11.46051548542117	smarter_cells
SM-D9D8E_S38_E1-50	5	2	9	23	2.7293383434925125	-13.14095731111092	smarter_cells
SM-D9D8E_S39_E1-50	5	2	1	36	5.0565865514579045	-10.105784307550088	smarter_cells
SM-D9D8E_S42_E1-50	5	2	1	3	3.8522562483315013	-11.242097947538287	smarter_cells
SM-D9D8E_S48_E1-50	5	2	1	36	4.53317061047434	-9.98799383050629	smarter_cells
SM-D9D8E_S51_E1-50	5	2	9	23	3.8346156952104837	-12.472999526727055	smarter_cells
SM-D9D8E_S52_E1-50	2	1	2	6	5.839846710482673	-3.977526979072912	smarter_cells
SM-D9D8E_S53_E1-50	2	1	7	2	5.1595695327043325	-1.4464174747186564	smarter_cells
SM-D9D8E_S54_E1-50	5	2	1	3	4.614614867778794	-11.46029281617091	smarter_cells
SM-D9D8F_S09_E1-50	5	2	9	23	3.114904884392283	-13.426171496753495	smarter_cells
SM-D9D8F_S10_E1-50	5	2	1	39	6.877844462322504	-11.395832735849206	smarter_cells
SM-D9D8F_S12_E1-50	5	2	9	24	2.5796285195049804	-10.719075085543528	smarter_cells
SM-D9D8F_S13_E1-50	5	2	9	23	2.903155676417823	-13.336565323539526	smarter_cells
SM-D9D8F_S17_E1-50	5	2	9	24	2.562278754958496	-11.826788885339367	smarter_cells
SM-D9D8F_S25_E1-50	5	2	1	39	7.364662621608201	-11.093120072146649	smarter_cells
SM-D9D8F_S26_E1-50	5	2	9	23	3.1841908768025515	-13.718359606274303	smarter_cells
SM-D9D8F_S27_E1-50	5	2	9	24	3.325129667751431	-11.513889025355915	smarter_cells
SM-D9D8F_S28_E1-50	5	2	1	3	6.5220697775689525	-12.05216365231683	smarter_cells
SM-D9D8F_S29_E1-50	5	2	1	39	7.58644110972966	-11.37561009055267	smarter_cells
SM-D9D8F_S30_E1-50	5	2	1	3	5.677217020933013	-11.976867979584396	smarter_cells
SM-D9D8F_S32_E1-50	5	2	9	23	3.1395364888325217	-13.542209277078674	smarter_cells
SM-D9D8G_S01_E1-50	5	2	1	36	6.868736047270801	-11.118826363429609	smarter_cells
SM-D9D8G_S02_E1-50	5	2	9	24	2.819584488425271	-11.23011996864526	smarter_cells
SM-D9D8G_S03_E1-50	5	2	9	23	3.917447693157703	-13.564617803795102	smarter_cells
SM-D9D8G_S04_E1-50	5	2	9	23	5.132219216010874	-13.450656928585449	smarter_cells
SM-D9D8G_S05_E1-50	5	2	1	3	5.1312765704107095	-12.438091002429479	smarter_cells
SM-D9D8G_S06_E1-50	5	2	9	23	3.5608677557024553	-12.806671388928395	smarter_cells
SM-D9D8G_S07_E1-50	5	2	1	36	6.16402802484023	-9.669482557083889	smarter_cells
SM-D9D8G_S08_E1-50	5	2	9	23	3.6164202610580256	-13.549787328737118	smarter_cells
SM-D9D8G_S17_E1-50	5	2	1	18	5.355885260014879	-11.41753707015381	smarter_cells
SM-D9D8G_S18_E1-50	5	2	9	23	3.9983643960228727	-13.7797658201879	smarter_cells
SM-D9D8G_S19_E1-50	5	2	9	23	3.219187027920036	-12.930139993283268	smarter_cells
SM-D9D8G_S20_E1-50	5	2	9	24	3.5770363532752563	-11.371883593863398	smarter_cells
SM-D9D8G_S21_E1-50	5	2	9	23	3.326155633539589	-12.764658774924893	smarter_cells
SM-D9D8G_S22_E1-50	5	2	9	23	4.062959231588336	-13.965433916264434	smarter_cells
SM-D9D8G_S23_E1-50	5	2	1	3	5.210346713070195	-13.051009878173607	smarter_cells
SM-D9D8G_S24_E1-50	5	2	1	36	3.900400567191646	-9.816095564059323	smarter_cells
SM-D9D8G_S25_E1-50	3	3	4	4	-9.734677285183094	-2.015231729459585	smarter_cells
SM-D9D8G_S26_E1-50	3	6	21	16	-8.208425754016984	-6.242028446440132	smarter_cells
SM-D9D8G_S27_E1-50	3	6	23	37	-12.055393840628529	-5.1440697220623495	smarter_cells
SM-D9D8G_S28_E1-50	3	3	4	4	-8.786231621276883	-1.3800098503953335	smarter_cells
SM-D9D8G_S29_E1-50	7	9	17	42	-6.992366120702135	11.272910011167344	smarter_cells
SM-D9D8G_S30_E1-50	3	3	15	26	-10.085271171968161	-3.782739156866132	smarter_cells
SM-D9D8G_S31_E1-50	3	3	4	4	-9.460274694461631	-2.301773670621777	smarter_cells
SM-D9D8G_S32_E1-50	3	3	4	9	-8.150640496635203	-2.64780607137814	smarter_cells
SM-D9D8G_S33_E1-50	3	6	12	27	-8.651728729952262	-5.497005514251133	smarter_cells
SM-D9D8G_S34_E1-50	1	4	3	5	5.009487468736675	8.078996378840351	smarter_cells
SM-D9D8G_S35_E1-50	3	3	4	9	-7.190524898466062	-2.1828453158115826	smarter_cells
SM-D9D8G_S36_E1-50	3	6	23	37	-10.009886671980329	-4.864243485964865	smarter_cells
SM-D9D8G_S37_E1-50	1	4	3	29	4.556496894136393	9.925672272936378	smarter_cells
SM-D9D8G_S38_E1-50	1	4	3	22	5.230495345828056	9.161342445780013	smarter_cells
SM-D9D8G_S39_E1-50	3	3	4	9	-7.351961519104381	-2.6449939080788885	smarter_cells
SM-D9D8G_S40_E1-50	1	4	3	22	5.188258106878534	9.260138765865243	smarter_cells
SM-D9D8G_S41_E1-50	1	4	3	5	4.692213249889331	7.720188642616492	smarter_cells
SM-D9D8G_S42_E1-50	1	4	14	32	4.366851970836671	10.045605205810006	smarter_cells
SM-D9D8G_S43_E1-50	3	6	23	37	-12.142496422207943	-5.1540286747255095	smarter_cells
SM-D9D8G_S44_E1-50	3	3	4	9	-7.398047103273389	-2.7162223569418193	smarter_cells
SM-D9D8G_S45_E1-50	1	4	14	32	3.78975348392183	9.30683530050548	smarter_cells
SM-D9D8G_S46_E1-50	3	3	4	9	-7.019333507026496	-3.6766244453314285	smarter_cells
SM-D9D8G_S47_E1-50	1	4	3	29	4.9519049992667155	8.716896957640008	smarter_cells
SM-D9D8G_S48_E1-50	3	6	12	26	-10.14525167017876	-5.414826151519968	smarter_cells
SM-D9D8H_S01_E1-50	1	4	3	29	4.117904362917551	9.103114656700978	smarter_cells
SM-D9D8H_S02_E1-50	3	3	4	9	-6.747972675404581	-2.39102800990161	smarter_cells
SM-D9D8H_S03_E1-50	1	4	3	22	5.438389092786094	8.748568165911351	smarter_cells
SM-D9D8H_S04_E1-50	1	4	3	5	4.706104872269864	7.7033975783225905	smarter_cells
SM-D9D8H_S05_E1-50	3	3	4	9	-8.224397070336064	-2.3632504622045003	smarter_cells
SM-D9D8H_S06_E1-50	1	4	3	5	3.912059100999151	7.877929378068572	smarter_cells
SM-D9D8H_S07_E1-50	3	3	4	9	-8.273009030143147	-2.9319163075426204	smarter_cells
SM-D9D8H_S08_E1-50	3	6	12	26	-9.491798105485103	-5.44577344441282	smarter_cells
SM-D9D8H_S09_E1-50	3	3	15	7	-9.606649446000032	-1.7318078476629113	smarter_cells
SM-D9D8H_S10_E1-50	1	4	3	5	4.259754066440612	7.189752028464914	smarter_cells
SM-D9D8H_S11_E1-50	3	6	12	27	-8.312622218584442	-4.3480088134554835	smarter_cells
SM-D9D8H_S12_E1-50	3	3	4	9	-7.9080840185819845	-1.2794977880909442	smarter_cells
SM-D9D8H_S13_E1-50	3	3	24	41	-10.464371189771885	-1.1047351544400874	smarter_cells
SM-D9D8H_S14_E1-50	3	3	15	7	-10.226251322061415	-3.1104409536298965	smarter_cells
SM-D9D8H_S15_E1-50	1	4	3	5	4.912962654264441	7.394505523575892	smarter_cells
SM-D9D8H_S16_E1-50	3	3	4	9	-7.2484250198141815	-2.172109205497555	smarter_cells
SM-D9D8H_S25_E1-50	1	5	8	1	2.9809804377847997	8.534600789161052	smarter_cells
SM-D9D8H_S26_E1-50	3	3	4	9	-7.092060995085131	-2.9590071255089283	smarter_cells
SM-D9D8H_S27_E1-50	3	3	4	9	-7.053622917174421	-1.925483996866919	smarter_cells
SM-D9D8H_S28_E1-50	1	5	14	35	2.1284487653890727	7.677913920858522	smarter_cells
SM-D9D8H_S29_E1-50	7	9	17	30	-6.8362473357628	10.081370027131952	smarter_cells
SM-D9D8H_S30_E1-50	3	6	12	26	-9.591693279931567	-6.076348271713228	smarter_cells
SM-D9D8H_S31_E1-50	1	4	14	32	3.086147684522243	9.973762763044887	smarter_cells
SM-D9D8H_S32_E1-50	3	6	12	26	-10.256433228799864	-4.947051758822637	smarter_cells
SM-D9D8H_S33_E1-50	2	1	2	3	7.604161539897152	-3.001167804731972	smarter_cells
SM-D9D8H_S34_E1-50	5	2	1	36	5.555828286432317	-9.821463654924523	smarter_cells
SM-D9D8H_S35_E1-50	5	2	9	23	5.046433529747235	-13.442098053181182	smarter_cells
SM-D9D8H_S36_E1-50	5	2	1	36	4.966924077353636	-9.82489915358924	smarter_cells
SM-D9D8H_S37_E1-50	5	2	1	18	5.882314624702129	-10.282249032025906	smarter_cells
SM-D9D8H_S38_E1-50	2	1	2	6	5.783839893423485	-3.9370258300788543	smarter_cells
SM-D9D8H_S39_E1-50	5	2	1	3	5.502329250188518	-11.486907956761574	smarter_cells
SM-D9D8H_S40_E1-50	5	2	1	18	6.314828139832633	-10.438201142601175	smarter_cells
SM-D9D8H_S41_E1-50	5	2	1	18	6.118804914388467	-11.048533332244963	smarter_cells
SM-D9D8H_S42_E1-50	5	2	1	3	6.500099855246627	-11.787109730573603	smarter_cells
SM-D9D8H_S43_E1-50	5	2	1	18	5.023729750244329	-11.343344633823845	smarter_cells
SM-D9D8H_S44_E1-50	5	2	1	39	7.407547874343344	-11.870631164882722	smarter_cells
SM-D9D8H_S45_E1-50	5	2	9	23	3.5211600123637954	-13.13205256160429	smarter_cells
SM-D9D8H_S46_E1-50	5	2	9	23	2.997963896692275	-12.877771279097109	smarter_cells
SM-D9D8H_S47_E1-50	5	2	9	23	3.1810652766750023	-13.528742505854245	smarter_cells
SM-D9D8H_S48_E1-50	2	1	7	2	4.199129839735711	-1.1447739213952781	smarter_cells
SM-D9D8H_S49_E1-50	5	2	1	3	4.706384254056468	-12.422219623171214	smarter_cells
SM-D9D8H_S50_E1-50	2	1	7	2	4.46508819668162	-1.533468011866049	smarter_cells
SM-D9D8H_S51_E1-50	5	2	9	23	2.66977754880831	-12.65432917547586	smarter_cells
SM-D9D8H_S52_E1-50	1	4	14	32	2.4331142487636743	10.52064141030366	smarter_cells
SM-D9D8H_S53_E1-50	3	3	15	7	-10.103405620555533	-2.7012674657866684	smarter_cells
SM-D9D8H_S54_E1-50	7	9	17	30	-7.052939929308302	10.125146950052976	smarter_cells
SM-D9D8H_S55_E1-50	3	6	23	37	-12.205199821237182	-5.0223968120586004	smarter_cells
SM-D9D8H_S56_E1-50	6	6	21	16	-7.411838792424087	-8.359418832210295	smarter_cells
SM-D9D8I_S33_E1-50	1	4	3	5	4.508237044155051	8.240242977867778	smarter_cells
SM-D9D8I_S34_E1-50	3	3	15	7	-9.738059404352866	-2.5964499541091164	smarter_cells
SM-D9D8I_S35_E1-50	3	3	4	9	-7.055201981144447	-2.28442542034745	smarter_cells
SM-D9D8I_S36_E1-50	7	9	17	30	-6.986761254697824	10.482756077712054	smarter_cells
SM-D9D8I_S37_E1-50	1	4	3	5	4.427100961617445	8.402035072343057	smarter_cells
SM-D9D8I_S38_E1-50	7	9	17	30	-6.97244823873453	10.491446238704937	smarter_cells
SM-D9D8I_S39_E1-50	3	3	4	9	-6.732481271908141	-2.529737119120748	smarter_cells
SM-D9D8I_S40_E1-50	7	9	17	30	-6.8512444836859006	10.358923619498059	smarter_cells
SM-D9D8I_S41_E1-50	3	6	23	37	-11.522605626406257	-5.049707848300683	smarter_cells
SM-D9D8I_S42_E1-50	1	5	14	35	2.101594213316407	8.004251897940254	smarter_cells
SM-D9D8I_S43_E1-50	1	4	3	22	6.126136351786699	9.363264726239658	smarter_cells
SM-D9D8I_S44_E1-50	7	9	17	42	-7.418851908350184	11.61548423943399	smarter_cells
SM-D9D8I_S45_E1-50	1	4	14	32	3.7125299802288634	9.606160141645978	smarter_cells
SM-D9D8I_S47_E1-50	7	9	17	42	-7.722761020622094	12.084976661173311	smarter_cells
SM-D9D8I_S48_E1-50	7	9	17	30	-7.313585324145808	10.179062713326553	smarter_cells
SM-D9D8I_S49_E1-50	1	4	3	22	5.538027157045964	10.54104765160153	smarter_cells
SM-D9D8I_S51_E1-50	4	13	18	17	6.588928064183855	4.574326506743548	smarter_cells
SM-D9D8I_S52_E1-50	7	9	17	42	-7.34623507629041	11.54762243744583	smarter_cells
SM-D9D8I_S53_E1-50	1	4	14	32	3.2574779708197577	8.957071240188993	smarter_cells
SM-D9D8I_S54_E1-50	1	4	3	22	5.584029850209002	9.020919312560006	smarter_cells
SM-D9D8I_S56_E1-50	1	4	3	29	4.185125776116252	9.941797003834	smarter_cells
SM-D9D8I_S73_E1-50	3	3	4	4	-8.612900269183548	-3.213144628506869	smarter_cells
SM-D9D8I_S74_E1-50	1	4	14	32	3.390607539526809	10.548157334144605	smarter_cells
SM-D9D8I_S75_E1-50	3	3	4	4	-8.961012200881154	-2.5937882655231825	smarter_cells
SM-D9D8I_S76_E1-50	1	4	14	32	1.8551928042361474	10.783557284073545	smarter_cells
SM-D9D8I_S78_E1-50	3	3	4	9	-7.991183297255964	-1.937042411438463	smarter_cells
SM-D9D8I_S79_E1-50	3	6	12	27	-8.079193982776632	-4.543424068553901	smarter_cells
SM-D9D8I_S80_E1-50	3	3	15	7	-11.317189326685284	-3.830756942416177	smarter_cells
SM-D9D8J_S01_E1-50	3	3	4	9	-7.299065905057834	-3.133136359008566	smarter_cells
SM-D9D8J_S02_E1-50	3	6	12	26	-8.967387711907003	-5.878768001124091	smarter_cells
SM-D9D8J_S03_E1-50	3	3	15	7	-10.534765887771648	-2.0309105866733144	smarter_cells
SM-D9D8J_S04_E1-50	3	3	4	9	-7.50574460440805	-2.3054592758819767	smarter_cells
SM-D9D8J_S06_E1-50	3	3	15	7	-10.834855059725593	-2.6984646346092047	smarter_cells
SM-D9D8J_S07_E1-50	3	6	12	27	-8.556984618789865	-4.857800178518256	smarter_cells
SM-D9D8J_S08_E1-50	1	4	14	32	3.0645422551830266	9.082451491073842	smarter_cells
SM-D9D8K_S01_E1-50	3	3	12	41	-9.764450885838864	-4.182585828266404	smarter_cells
SM-D9D8K_S02_E1-50	1	4	3	29	5.070924544101572	9.437505440013927	smarter_cells
SM-D9D8K_S03_E1-50	3	3	4	4	-9.271776546478838	-2.1143307372582396	smarter_cells
SM-D9D8K_S04_E1-50	1	4	3	22	5.187148392510325	8.487313111684728	smarter_cells
SM-D9D8K_S05_E1-50	3	3	15	7	-9.77757483273999	-2.8550298429750396	smarter_cells
SM-D9D8K_S06_E1-50	3	3	4	9	-7.089239199432783	-2.1962127530612454	smarter_cells
SM-D9D8K_S07_E1-50	3	6	12	26	-9.307260441987822	-5.655279939638243	smarter_cells
SM-D9D8K_S08_E1-50	3	6	12	27	-8.214132992141062	-4.859800036614576	smarter_cells
SM-D9D8K_S25_E1-50	3	3	4	9	-8.452597826676746	-2.3177004590734036	smarter_cells
SM-D9D8K_S26_E1-50	8	11	11	20	-4.354543710572201	0.681975357263451	smarter_cells
SM-D9D8K_S27_E1-50	3	3	15	7	-10.141472751079503	-3.5518626949686958	smarter_cells
SM-D9D8K_S28_E1-50	3	3	4	7	-8.699056570792637	-3.2415419338714813	smarter_cells
SM-D9D8K_S29_E1-50	8	11	11	20	-4.351680904360855	0.8016735449190785	smarter_cells
SM-D9D8K_S32_E1-50	3	3	4	9	-8.108988208264742	-2.892602557370556	smarter_cells
SM-D9D8O_S01_E1-50	1	4	14	32	3.8050078621665038	9.862846536552833	smarter_cells
SM-D9D8O_S02_E1-50	3	3	15	7	-10.214085522080834	-3.1046155316394173	smarter_cells
SM-D9D8O_S03_E1-50	3	3	4	9	-7.204006998916569	-2.5234952944658113	smarter_cells
SM-D9D8O_S04_E1-50	1	4	3	5	5.754906543968136	7.893145927232624	smarter_cells
SM-D9D8O_S07_E1-50	3	3	4	9	-7.529178365140355	-2.7394333016231696	smarter_cells
SM-D9D8O_S09_E1-50	4	13	18	17	7.106346693721093	5.477139928339767	smarter_cells
SM-D9D8O_S11_E1-50	1	4	14	32	3.4559426824713535	9.55789136725895	smarter_cells
SM-D9D8O_S12_E1-50	1	4	14	32	3.0782219885752338	10.28339360198025	smarter_cells
SM-D9D8O_S14_E1-50	3	6	12	26	-10.401358006413615	-5.0492579236066435	smarter_cells
SM-D9D8O_S15_E1-50	1	4	3	5	5.178699233882706	7.706470708612887	smarter_cells
SM-D9D8O_S18_E1-50	1	4	3	5	4.319033790454894	6.98950553207295	smarter_cells
SM-D9D8O_S20_E1-50	7	9	17	42	-7.31670103177667	11.578950720104334	smarter_cells
SM-D9D8O_S21_E1-50	1	4	3	22	5.475394413068719	10.346317265619572	smarter_cells
SM-D9D8O_S23_E1-50	4	13	18	17	7.520601935035821	5.309216355042743	smarter_cells
SM-D9D8O_S26_E1-50	2	1	2	6	7.0031555661740015	-3.836972227986929	smarter_cells
SM-D9D8O_S27_E1-50	2	1	7	28	6.803308812278225	-0.6891991068558874	smarter_cells
SM-D9D8O_S28_E1-50	2	1	2	6	7.60545664877837	-3.5882822469057327	smarter_cells
SM-D9D8O_S29_E1-50	2	1	7	2	4.843780087151814	-1.9673060030429874	smarter_cells
SM-D9D8O_S30_E1-50	5	2	1	3	5.678652618603201	-12.897433508392517	smarter_cells
SM-D9D8O_S32_E1-50	5	2	1	3	4.188059821026194	-11.284500426544708	smarter_cells
SM-D9D8O_S33_E1-50	4	8	6	38	10.572855368669712	2.337309192317846	smarter_cells
SM-D9D8O_S35_E1-50	5	2	1	3	6.598802922380377	-10.645423558064794	smarter_cells
SM-D9D8O_S38_E1-50	5	2	1	3	5.606022445801866	-11.80757260012234	smarter_cells
SM-D9D8O_S40_E1-50	5	2	1	36	5.478955437756804	-9.736013414989513	smarter_cells
SM-D9D8P_S37_E1-50	5	2	1	39	7.536272976765254	-10.847952334427927	smarter_cells
SM-D9D8P_S41_E1-50	1	4	3	5	5.412593501096405	7.299511944481081	smarter_cells
SM-D9D8P_S42_E1-50	3	6	12	26	-9.53326700778443	-5.932124398681045	smarter_cells
SM-D9D8P_S44_E1-50	3	3	15	7	-10.608233135613332	-3.572874639688325	smarter_cells
SM-D9D8P_S45_E1-50	3	6	23	37	-8.96114907700619	-3.5712116425846765	smarter_cells
SM-D9D8P_S46_E1-50	3	3	4	9	-7.886782682735807	-2.032046916855676	smarter_cells
SM-D9D8P_S47_E1-50	3	3	23	37	-9.717955529677452	-3.108807327658819	smarter_cells
SM-D9D8P_S48_E1-50	3	6	21	16	-7.82175688244474	-6.5529375332547115	smarter_cells
SM-D9D8P_S49_E1-50	3	6	21	16	-7.932486175418225	-6.376846000196268	smarter_cells
SM-D9D8P_S50_E1-50	1	4	14	35	3.0334979545298872	7.273506961049927	smarter_cells
SM-D9D8P_S51_E1-50	3	6	12	27	-8.304323640361506	-5.09492431810775	smarter_cells
SM-D9D8P_S52_E1-50	1	4	14	5	3.425369735280036	7.5142668305049245	smarter_cells
SM-D9D8P_S53_E1-50	1	4	3	22	5.703038009805034	10.23752149221127	smarter_cells
SM-D9D8P_S54_E1-50	3	3	4	9	-7.034135992105429	-1.760203852015897	smarter_cells
SM-D9D8P_S55_E1-50	3	3	12	27	-9.295199476973501	-3.27098841025769	smarter_cells
SM-D9D8Q_S01_E1-50	3	6	12	27	-8.036389923569335	-5.102721262635591	smarter_cells
SM-D9D8Q_S02_E1-50	3	3	15	7	-10.11963684215739	-3.7614227819283723	smarter_cells
SM-D9D8Q_S03_E1-50	3	6	12	27	-8.489926067302834	-4.176022114153646	smarter_cells
SM-D9D8Q_S04_E1-50	3	6	23	37	-10.814187922203443	-5.510287614734953	smarter_cells
SM-D9D8Q_S05_E1-50	3	6	15	37	-9.980420615471608	-3.5072957918339154	smarter_cells
SM-D9D8Q_S06_E1-50	3	6	12	27	-8.360372559541199	-4.403617182313497	smarter_cells
SM-D9D8Q_S07_E1-50	3	6	21	16	-7.952613904157529	-5.948048537895047	smarter_cells
SM-D9D8Q_S08_E1-50	1	4	3	22	5.499326792211972	8.75841641546932	smarter_cells
SM-D9D8Q_S09_E1-50	3	6	12	26	-9.807151758642835	-5.3219828368617526	smarter_cells
SM-D9D8Q_S10_E1-50	3	3	4	9	-7.558551923760809	-1.619365174845712	smarter_cells
SM-D9D8Q_S11_E1-50	1	4	3	5	5.379923469743728	7.427056159938282	smarter_cells
SM-D9D8Q_S12_E1-50	3	3	4	4	-9.678783353134511	-3.0913652962152476	smarter_cells
SM-D9D8Q_S14_E1-50	1	4	3	22	5.469110476467461	8.912794652367495	smarter_cells
SM-D9D8Q_S15_E1-50	3	6	12	26	-10.5640999364542	-4.914065218848435	smarter_cells
SM-D9D8Q_S16_E1-50	3	6	12	26	-9.759361354779172	-5.887664768805676	smarter_cells
SM-D9D8Q_S17_E1-50	3	3	24	41	-9.917033901471642	-2.476093021139632	smarter_cells
SM-D9D8Q_S18_E1-50	3	6	21	16	-7.9039303741801525	-5.774397584778374	smarter_cells
SM-D9D8Q_S19_E1-50	3	3	4	9	-7.023189946680973	-3.6096621126865074	smarter_cells
SM-D9D8Q_S20_E1-50	3	6	12	27	-8.294334493058201	-5.103990794068224	smarter_cells
SM-D9D8Q_S21_E1-50	3	6	12	27	-7.552244141620575	-4.843168566027519	smarter_cells
SM-D9D8Q_S22_E1-50	3	3	4	4	-9.039336594848749	-1.619754222597411	smarter_cells
SM-D9D8Q_S23_E1-50	1	5	16	12	1.8327708453074398	9.198500101397174	smarter_cells
SM-D9D8Q_S24_E1-50	3	6	12	27	-8.543799438649826	-4.820111685772188	smarter_cells
SM-D9D8R_S09_E1-50	1	4	14	32	3.5676436830169402	10.043105781738811	smarter_cells
SM-D9D8R_S11_E1-50	1	4	3	5	4.59481209158929	8.15527930672506	smarter_cells
SM-D9D8R_S13_E1-50	3	3	4	9	-7.490141223113199	-1.4254178529233206	smarter_cells
SM-D9D8R_S15_E1-50	7	9	17	30	-7.086508183401382	10.632949676405081	smarter_cells
SM-D9D8R_S16_E1-50	10	17	26	44	-3.7305754823658903	6.402327541720399	smarter_cells
SM-D9D8R_S17_E1-50	1	4	3	5	5.215067093634322	8.264168265652069	smarter_cells
SM-D9D8R_S20_E1-50	1	15	22	31	-0.5452067822956167	10.534704335610353	smarter_cells
SM-D9D8R_S21_E1-50	1	4	3	22	5.287532780597494	10.12041956981893	smarter_cells
SM-D9D8R_S22_E1-50	3	3	4	9	-7.222700575061035	-3.0893015467344993	smarter_cells
SM-D9D8R_S24_E1-50	3	3	15	7	-10.379415263158021	-2.907175917463195	smarter_cells
SM-D9D8R_S26_E1-50	2	1	7	28	7.2171755486183615	-1.672829475312103	smarter_cells
SM-D9D8R_S27_E1-50	2	1	2	6	6.292128523272775	-3.965785857421194	smarter_cells
SM-D9D8R_S28_E1-50	4	13	18	17	6.797120736200332	4.221907630399515	smarter_cells
SM-D9D8R_S29_E1-50	2	1	7	2	5.238434461886341	-3.841276658014591	smarter_cells
SM-D9D8R_S30_E1-50	5	2	1	3	4.951929016620675	-10.939607581012886	smarter_cells
SM-D9D8R_S31_E1-50	4	8	6	10	8.873856420389483	0.5473448381819719	smarter_cells
SM-D9D8R_S32_E1-50	5	2	1	3	5.962187120942802	-11.935521361637315	smarter_cells
SM-D9D8R_S33_E1-50	2	1	2	13	6.785982246977923	-1.717200065294195	smarter_cells
SM-D9D8R_S35_E1-50	2	1	2	6	5.464259116222511	-4.211232903727624	smarter_cells
SM-D9D8R_S41_E1-50	5	2	1	36	5.628208219019442	-10.006316117709787	smarter_cells
SM-D9D8R_S42_E1-50	2	1	2	13	7.988945928119021	-1.4152328248103059	smarter_cells
SM-D9D8R_S43_E1-50	2	1	2	6	7.1249214507069105	-3.4547439268389653	smarter_cells
SM-D9D8R_S44_E1-50	5	2	1	3	5.682998533947392	-11.765674249334705	smarter_cells
SM-D9D8R_S48_E1-50	5	2	1	3	5.666803401332175	-10.117910828373487	smarter_cells
SM-D9D8S_S02_E1-50	10	17	26	44	-4.052345769923869	6.324625375905651	smarter_cells
SM-D9D8S_S04_E1-50	4	13	18	17	7.246087276662288	5.138796980789967	smarter_cells
SM-D9D8S_S17_E1-50	10	17	26	44	-3.788360438525703	6.264779793879729	smarter_cells
SM-D9D8S_S18_E1-50	1	4	3	22	5.420678304462122	10.484683501362635	smarter_cells
SM-D9D8S_S19_E1-50	3	3	15	7	-10.617254635797353	-2.9123690272415885	smarter_cells
SM-D9D8S_S20_E1-50	1	4	3	22	5.492781342755401	10.370471623243876	smarter_cells
SM-D9D8S_S21_E1-50	1	4	3	5	4.585857611637135	8.04999395295507	smarter_cells
SM-D9D8S_S22_E1-50	8	11	11	20	-4.41909842860875	0.6216051989846456	smarter_cells
SM-D9D8S_S23_E1-50	7	9	17	30	-7.099941623672348	10.589934157680947	smarter_cells
SM-D9D8S_S24_E1-50	3	3	15	7	-9.30530248659427	-3.0629992228832803	smarter_cells
SM-D9E4M_S25_E1-50	1	4	14	32	4.067740595299996	9.295641131689708	smarter_cells
SM-D9E4M_S26_E1-50	3	3	15	7	-11.499236876892368	-2.3364714625981193	smarter_cells
SM-D9E4M_S27_E1-50	3	6	12	26	-10.063316545873853	-4.574126315575538	smarter_cells
SM-D9E4M_S28_E1-50	3	6	12	26	-10.073870285618957	-5.882415270429437	smarter_cells
SM-D9E4M_S29_E1-50	3	3	4	9	-7.656090267635057	-2.9692769805490506	smarter_cells
SM-D9E4M_S30_E1-50	3	6	12	26	-10.033209342307506	-5.84539773545911	smarter_cells
SM-D9E4M_S31_E1-50	1	4	3	22	6.185225707719938	10.000337560464713	smarter_cells
SM-D9E4M_S32_E1-50	1	4	3	29	4.5613610779529035	9.937544089643428	smarter_cells
SM-D9E4M_S33_E1-50	3	6	12	27	-8.793719990600838	-5.309904807478705	smarter_cells
SM-D9E4M_S34_E1-50	3	3	4	4	-9.841871180609575	-2.521416105464801	smarter_cells
SM-D9E4M_S35_E1-50	3	3	15	7	-11.199824634662654	-2.641478334567004	smarter_cells
SM-D9E4M_S36_E1-50	3	6	12	27	-8.325002161997277	-4.085277999473877	smarter_cells
SM-D9E4M_S37_E1-50	3	3	15	7	-10.537454000066148	-3.6845545975685323	smarter_cells
SM-D9E4M_S38_E1-50	3	3	15	7	-10.993063250623345	-2.6476391569568762	smarter_cells
SM-D9E4M_S39_E1-50	3	6	12	27	-8.32669324455948	-5.743570664270813	smarter_cells
SM-D9E4M_S40_E1-50	3	6	12	26	-10.370983452224083	-4.8560169495863	smarter_cells
SM-D9E4M_S49_E1-50	3	3	4	9	-7.066255151255997	-2.3326499797419564	smarter_cells
SM-D9E4M_S50_E1-50	3	3	15	7	-9.48743556658396	-2.4156430115788097	smarter_cells
SM-D9E4M_S52_E1-50	3	6	23	37	-11.028849041970055	-5.148270948211215	smarter_cells
SM-D9E4M_S53_E1-50	3	3	15	7	-10.04632684464264	-3.244812385830128	smarter_cells
SM-D9E4M_S54_E1-50	1	4	3	5	4.803381826955036	7.447906037171432	smarter_cells
SM-D9E4M_S55_E1-50	1	4	3	29	3.654349600363857	9.374323507936714	smarter_cells
SM-D9E4M_S56_E1-50	3	6	12	27	-7.867202301973112	-3.995748452225227	smarter_cells
SM-D9E5E_S01_E1-50	4	13	18	17	8.128668955044287	4.289735302150011	smarter_cells
SM-D9E5E_S02_E1-50	4	7	5	14	10.657270248439055	5.213345021171366	smarter_cells
SM-D9E5E_S03_E1-50	4	7	5	11	11.626446790264366	2.665230473333997	smarter_cells
SM-D9E5E_S04_E1-50	4	8	6	10	9.551339978853996	0.8541222720868801	smarter_cells
SM-D9E5E_S05_E1-50	4	13	18	17	7.814379884435293	4.527587698592332	smarter_cells
SM-D9E5E_S06_E1-50	4	7	5	11	10.509497743201615	3.5667798381967284	smarter_cells
SM-D9E5E_S07_E1-50	7	9	19	19	-8.751623476531437	11.310692931832365	smarter_cells
SM-D9E5E_S08_E1-50	4	7	5	11	11.435722180047089	3.8919418325884267	smarter_cells
SM-D9E5E_S09_E1-50	4	8	6	10	9.214777055692172	-0.4343282659588121	smarter_cells
SM-D9E5E_S10_E1-50	4	8	6	10	9.212807942149947	-0.9107837563123027	smarter_cells
SM-D9E5E_S11_E1-50	4	7	5	11	11.302415780658176	3.5504909970293883	smarter_cells
SM-D9E5E_S12_E1-50	4	7	5	11	11.876171584814259	3.1233441525383094	smarter_cells
SM-D9E5E_S13_E1-50	4	7	5	11	10.83335510272298	2.9873905727910546	smarter_cells
SM-D9E5E_S14_E1-50	4	7	5	14	11.342918162126649	5.108544133446672	smarter_cells
SM-D9E5E_S15_E1-50	4	8	6	10	9.607305652690618	-1.1527603439778085	smarter_cells
SM-D9E5E_S16_E1-50	4	8	6	10	9.048257063799563	0.3579829557441911	smarter_cells
SM-D9E5E_S18_E1-50	7	9	19	19	-9.264723526631599	9.456056236193819	smarter_cells
SM-D9E5E_S19_E1-50	4	8	6	10	9.35687476126803	-0.9305834055398192	smarter_cells
SM-D9E5E_S20_E1-50	4	7	5	11	9.218344760951144	3.988985045333044	smarter_cells
SM-D9E5E_S21_E1-50	4	8	6	10	9.262969704324302	-1.4762351999509358	smarter_cells
SM-D9E5E_S22_E1-50	7	9	19	19	-8.908843978195087	8.869402930068292	smarter_cells
SM-D9E5E_S23_E1-50	4	8	6	33	8.851721103993068	0.934928647945318	smarter_cells
SM-D9E5E_S24_E1-50	2	1	7	28	6.051708831896273	-0.6847119308391599	smarter_cells
SM-D9E5E_S25_E1-50	1	4	14	32	3.029862422786055	10.396723448474077	smarter_cells
SM-D9E5E_S26_E1-50	3	3	4	9	-6.7120695088200195	-2.5391773116882503	smarter_cells
SM-D9E5E_S27_E1-50	1	4	3	29	4.578711541474681	9.210820832966752	smarter_cells
SM-D9E5E_S28_E1-50	3	6	12	26	-9.574726664312056	-5.084411099039792	smarter_cells
SM-D9E5E_S29_E1-50	1	4	14	32	3.5595967501882786	10.52042832857153	smarter_cells
SM-D9E5E_S30_E1-50	3	3	15	7	-10.135985974421308	-1.64209957368587	smarter_cells
SM-D9E5E_S31_E1-50	1	4	3	29	4.475031737720227	9.799106701731896	smarter_cells
SM-D9E5E_S32_E1-50	3	6	12	27	-7.566438366284304	-4.274824665470371	smarter_cells
SM-D9E5E_S33_E1-50	1	5	14	32	2.4419845978745003	9.102238947052932	smarter_cells
SM-D9E5E_S34_E1-50	3	6	12	27	-8.52805183693323	-3.620111980250719	smarter_cells
SM-D9E5E_S35_E1-50	1	4	3	22	5.464231166263376	8.58556756922083	smarter_cells
SM-D9E5E_S36_E1-50	1	4	3	29	3.3392797121901707	10.273207862986643	smarter_cells
SM-D9E5E_S37_E1-50	3	6	12	26	-10.541734042214335	-5.127204947056885	smarter_cells
SM-D9E5E_S38_E1-50	3	6	12	26	-9.950750633266153	-5.162999859416027	smarter_cells
SM-D9E5E_S39_E1-50	3	6	12	27	-7.930463844471265	-4.822385077370063	smarter_cells
SM-D9E5E_S40_E1-50	3	3	4	4	-8.300958647788923	-2.9124372074080886	smarter_cells
SM-D9E5E_S41_E1-50	1	4	3	29	4.052147226028096	9.466343420268268	smarter_cells
SM-D9E5E_S42_E1-50	3	6	4	9	-7.708942210392372	-3.8651493082555155	smarter_cells
SM-D9E5E_S43_E1-50	3	3	15	7	-10.92003978647703	-2.6791712917161803	smarter_cells
SM-D9E5E_S44_E1-50	1	4	3	5	4.625986785679555	8.354649592061623	smarter_cells
SM-D9E5E_S45_E1-50	3	3	4	4	-9.753127772763904	-1.432229915849432	smarter_cells
SM-D9E5E_S46_E1-50	3	6	21	16	-7.861161100052431	-5.985810480549494	smarter_cells
SM-D9E5E_S47_E1-50	3	3	4	9	-7.62298543776334	-2.175537519547335	smarter_cells
SM-D9E5E_S48_E1-50	3	3	15	7	-10.37806192112822	-3.447498095925141	smarter_cells
SM-D9E5N_S09_E1-50	4	7	5	14	10.914556272133723	4.724137953224511	smarter_cells
SM-D9E5N_S10_E1-50	4	13	18	17	6.869857097423935	5.02077158241984	smarter_cells
SM-D9E5N_S11_E1-50	7	9	19	19	-9.446211152033692	9.380648040297624	smarter_cells
SM-D9E5N_S12_E1-50	7	9	17	42	-7.966630040894303	10.908389895726685	smarter_cells
SM-D9E5N_S13_E1-50	4	13	18	17	6.935155344216365	4.201097793378536	smarter_cells
SM-D9E5N_S14_E1-50	4	7	5	14	11.487334776300177	4.677876191137525	smarter_cells
SM-D9E5N_S15_E1-50	7	9	19	19	-9.573572698460701	9.825911899246544	smarter_cells
SM-D9E5N_S16_E1-50	7	9	19	19	-9.158488532793946	9.191324764327208	smarter_cells
SM-D9E5N_S17_E1-50	4	7	5	11	9.754163454806639	3.730202139610311	smarter_cells
SM-D9E5N_S18_E1-50	4	7	5	11	11.25181750540318	2.6968231430067284	smarter_cells
SM-D9E5N_S19_E1-50	7	9	19	19	-9.880898984923654	11.456307889396166	smarter_cells
SM-D9E5N_S20_E1-50	4	7	5	11	10.048511532343358	3.5499844182993465	smarter_cells
SM-D9E5N_S21_E1-50	4	8	6	10	9.23886972080344	0.29854632431904815	smarter_cells
SM-D9E5N_S23_E1-50	4	7	5	11	10.488109420814682	3.4633368825208484	smarter_cells
SM-D9E5N_S24_E1-50	4	7	5	11	11.586896860638516	3.8221788457359827	smarter_cells
SM-D9E5N_S25_E1-50	4	7	5	11	11.78140448205875	3.8218094717184905	smarter_cells
SM-D9E5N_S26_E1-50	4	7	5	11	11.521889335954498	3.8689972526002343	smarter_cells
SM-D9E5N_S27_E1-50	4	7	5	14	10.656840639462471	5.1754613899159185	smarter_cells
SM-D9E5N_S28_E1-50	7	9	17	42	-8.300187120414948	11.59350239621999	smarter_cells
SM-D9E5N_S29_E1-50	4	8	6	10	10.19296457838633	0.7803458722158064	smarter_cells
SM-D9E5N_S30_E1-50	4	7	5	14	11.075043762958439	4.5108517083886435	smarter_cells
SM-D9E5N_S31_E1-50	4	7	5	14	11.903131035054622	3.5202190380956444	smarter_cells
SM-D9E5N_S32_E1-50	4	7	5	11	11.518896874506657	3.9001288480579253	smarter_cells
SM-D9E5N_S33_E1-50	3	3	24	41	-9.983374838932628	-1.7977207549001422	smarter_cells
SM-D9E5N_S34_E1-50	3	6	12	27	-7.415166913376014	-3.846637340658381	smarter_cells
SM-D9E5N_S35_E1-50	3	3	4	9	-6.622152244752538	-2.6742785774852074	smarter_cells
SM-D9E5N_S36_E1-50	3	3	4	4	-8.618030712713468	-3.416206875194566	smarter_cells
SM-D9E5N_S37_E1-50	1	4	14	32	1.9681544578650207	10.467547048185512	smarter_cells
SM-D9E5N_S38_E1-50	3	3	4	4	-9.55269381124526	-3.045180920060826	smarter_cells
SM-D9E5N_S39_E1-50	7	9	17	42	-7.080764719505838	11.065336958143067	smarter_cells
SM-D9E5N_S40_E1-50	3	3	15	7	-11.15518191366935	-2.73648989223589	smarter_cells
SM-D9E5N_S41_E1-50	7	9	17	42	-7.517908169757905	11.80521647055991	smarter_cells
SM-D9E5N_S42_E1-50	3	3	4	9	-8.203721746756887	-1.3105311158194546	smarter_cells
SM-D9E5N_S43_E1-50	1	4	3	29	4.021342176243672	9.409674175724195	smarter_cells
SM-D9E5N_S44_E1-50	3	6	12	26	-9.524907977909464	-5.554839026445191	smarter_cells
SM-D9E5N_S45_E1-50	1	4	3	22	5.358584366084993	8.616354412667711	smarter_cells
SM-D9E5N_S46_E1-50	1	4	3	22	4.848183910987612	10.277860976976996	smarter_cells
SM-D9E5N_S47_E1-50	3	3	15	7	-10.668472593134416	-2.117622464994339	smarter_cells
SM-D9E5N_S48_E1-50	1	4	3	22	5.248893349110014	8.917103858630588	smarter_cells
SM-D9E5N_S49_E1-50	3	3	4	9	-7.424114175414215	-3.451183731301976	smarter_cells
SM-D9E5N_S50_E1-50	1	4	3	22	5.7065499829776725	8.929543599491845	smarter_cells
SM-D9E5N_S51_E1-50	3	3	24	41	-10.245603049398209	-1.9414217267449287	smarter_cells
SM-D9E5N_S52_E1-50	3	3	15	7	-10.701716464514533	-3.1014015812542572	smarter_cells
SM-D9E5N_S53_E1-50	1	4	3	5	5.308320833460736	7.200453350951941	smarter_cells
SM-D9E5N_S54_E1-50	3	3	15	7	-10.508649742888066	-2.3766872528940977	smarter_cells
SM-D9E5N_S55_E1-50	1	4	14	32	2.974169271828702	9.554928428754241	smarter_cells
SM-D9E5N_S56_E1-50	1	4	3	29	4.325638018302521	9.820038800353473	smarter_cells
SM-D9E5N_S89_E1-50	7	9	19	19	-9.194741486369562	10.495899594961214	smarter_cells
SM-D9E5N_S90_E1-50	1	13	3	5	6.409300548699639	6.365084864763569	smarter_cells
SM-D9E5N_S91_E1-50	4	7	5	11	11.340348180023131	2.9664138855045383	smarter_cells
SM-D9E5N_S92_E1-50	7	9	17	42	-7.5842330286368504	11.052255516238263	smarter_cells
SM-D9E5N_S93_E1-50	4	7	5	14	10.656370375857062	4.955296277951962	smarter_cells
SM-D9E5N_S94_E1-50	7	9	17	42	-7.309540126525791	11.781192063056748	smarter_cells
SM-D9E5O_S01_E1-50	4	8	6	10	9.98924940525782	0.34804248477052796	smarter_cells
SM-D9E5O_S02_E1-50	2	1	2	13	7.08892193212689	-2.4953179194944948	smarter_cells
SM-D9E5O_S03_E1-50	4	8	6	38	10.752268742690763	2.594946190289658	smarter_cells
SM-D9E5O_S04_E1-50	4	7	5	11	11.938506506268899	2.5521653860447375	smarter_cells
SM-D9E5O_S05_E1-50	4	7	5	14	10.616258078815202	5.470277319697099	smarter_cells
SM-D9E5O_S06_E1-50	4	8	6	10	9.516129415158984	-0.8743027799540071	smarter_cells
SM-D9E5O_S07_E1-50	4	8	6	10	8.7737144701597	-1.3299601349575692	smarter_cells
SM-D9E5O_S08_E1-50	7	9	17	42	-8.081596028282812	11.106690398470446	smarter_cells
SM-D9E5O_S17_E1-50	4	7	5	11	11.221397129653623	2.4232499231740388	smarter_cells
SM-D9E5O_S18_E1-50	4	7	5	11	9.419528977780539	4.9902409613526935	smarter_cells
SM-D9E5O_S19_E1-50	7	9	19	19	-9.967652306231477	11.200695663375544	smarter_cells
SM-D9E5O_S20_E1-50	4	8	6	33	7.996914859438536	1.2245151349204801	smarter_cells
SM-D9E5O_S21_E1-50	7	9	19	19	-8.993123009391127	9.02963255834237	smarter_cells
SM-D9E5O_S22_E1-50	7	9	19	19	-9.447756909095666	9.579958326253102	smarter_cells
SM-D9E5O_S23_E1-50	7	9	17	30	-7.466563469824609	10.4163205956707	smarter_cells
SM-D9E5O_S24_E1-50	4	13	18	17	8.391839570398163	4.33930628300612	smarter_cells
SM-D9E5O_S25_E1-50	7	9	19	19	-9.09276955686748	9.054906546937092	smarter_cells
SM-D9E5O_S26_E1-50	7	9	19	19	-9.645158949737336	10.039027978954254	smarter_cells
SM-D9E5O_S27_E1-50	7	9	19	19	-9.200032336876992	8.995033977117373	smarter_cells
SM-D9E5O_S28_E1-50	4	7	5	11	10.25364277552602	4.809153136981314	smarter_cells
SM-D9E5O_S29_E1-50	4	13	18	17	7.638396309008807	5.1287668763513246	smarter_cells
SM-D9E5O_S30_E1-50	7	9	19	19	-9.049764725701738	9.840020993434281	smarter_cells
SM-D9E5O_S32_E1-50	7	9	19	19	-9.788598316947882	11.138581147481087	smarter_cells
SM-D9E5O_S33_E1-50	1	4	3	29	3.7849708370479345	9.433483033735213	smarter_cells
SM-D9E5O_S34_E1-50	3	3	15	7	-10.962734465050142	-2.9373060112488956	smarter_cells
SM-D9E5O_S35_E1-50	3	3	4	4	-8.882380319255253	-2.443548228266887	smarter_cells
SM-D9E5O_S36_E1-50	3	6	12	27	-9.052366425075105	-3.9225593708283584	smarter_cells
SM-D9E5O_S37_E1-50	3	6	23	37	-11.777854455003002	-5.612288391059975	smarter_cells
SM-D9E5O_S38_E1-50	1	4	3	29	3.6021815552950454	10.198813333447704	smarter_cells
SM-D9E5O_S39_E1-50	1	4	14	32	3.606843087090557	9.90809002001949	smarter_cells
SM-D9E5O_S40_E1-50	3	6	23	37	-11.041309197019961	-5.5275344017595724	smarter_cells
SM-D9E5O_S41_E1-50	1	4	3	22	5.837885575521193	10.16081542226384	smarter_cells
SM-D9E5O_S42_E1-50	3	6	23	37	-11.88026728587404	-5.653651540802359	smarter_cells
SM-D9E5O_S43_E1-50	1	4	3	22	5.940690247082326	8.770411590328978	smarter_cells
SM-D9E5O_S44_E1-50	3	3	15	7	-10.750802632409926	-3.6109571176887525	smarter_cells
SM-D9E5O_S45_E1-50	3	3	4	4	-9.114115900145782	-2.357708140151941	smarter_cells
SM-D9E5O_S46_E1-50	3	6	12	27	-7.70783622489553	-4.688795268518952	smarter_cells
SM-D9E5O_S47_E1-50	1	4	3	5	4.578359635595797	7.128036275616146	smarter_cells
SM-D9E5O_S48_E1-50	3	6	21	16	-7.845636116288849	-6.001178560867587	smarter_cells
SM-D9E5O_S49_E1-50	1	4	3	5	5.998788574079895	7.772339921992226	smarter_cells
SM-D9E5O_S50_E1-50	3	6	23	37	-10.500875456196797	-5.102195692398159	smarter_cells
SM-D9E5O_S51_E1-50	3	3	4	9	-7.167394478326568	-2.0913844352200153	smarter_cells
SM-D9E5O_S52_E1-50	3	6	12	26	-9.78557177526617	-4.687426883961891	smarter_cells
SM-D9E5O_S53_E1-50	3	3	4	4	-8.066116459498653	-1.5481323502685564	smarter_cells
SM-D9E5O_S54_E1-50	1	4	3	29	3.0481919217309095	10.16842590263322	smarter_cells
SM-D9E5O_S55_E1-50	3	3	4	9	-6.657547525505879	-2.5519152681235147	smarter_cells
SM-D9E5O_S56_E1-50	1	4	3	29	3.021885006911576	9.614711464004358	smarter_cells
SM-D9E5Q_S01_E1-50	5	2	1	3	4.4245910146716785	-11.659171405461374	smarter_cells
SM-D9E5Q_S02_E1-50	2	1	7	2	5.838175436039682	-2.259810360969055	smarter_cells
SM-D9E5Q_S03_E1-50	5	2	1	18	5.810463568428836	-11.239549748348836	smarter_cells
SM-D9E5Q_S04_E1-50	4	13	18	17	6.505626556255043	4.515887072575869	smarter_cells
SM-D9E5Q_S05_E1-50	5	2	1	3	6.479270595284788	-9.721312743939917	smarter_cells
SM-D9E5Q_S06_E1-50	5	2	1	18	4.283997185771171	-10.608253459119783	smarter_cells
SM-D9E5Q_S07_E1-50	4	8	6	33	7.703817169504412	0.9522954990161717	smarter_cells
SM-D9E5Q_S08_E1-50	4	8	6	10	9.243708942562854	0.678800482784587	smarter_cells
SM-D9E5Q_S10_E1-50	5	2	1	3	5.662776596748775	-11.745096457852876	smarter_cells
SM-D9E5Q_S11_E1-50	2	1	2	6	5.922151688245769	-4.504312469464226	smarter_cells
SM-D9E5Q_S12_E1-50	4	13	18	17	7.454812702357417	4.1350207262499685	smarter_cells
SM-D9E5Q_S14_E1-50	5	2	1	39	7.274841794302722	-11.322826186860903	smarter_cells
SM-D9E5Q_S15_E1-50	2	1	2	40	5.552896726190894	-5.0255353608178055	smarter_cells
SM-D9E5Q_S16_E1-50	5	2	1	3	6.129558368077707	-11.846592188464763	smarter_cells
SM-D9E5R_S42_E1-50	3	3	15	4	-9.950492825123359	-1.2849646266681063	smarter_cells
SM-D9E5R_S43_E1-50	3	3	4	4	-8.953670818795606	-2.399970082197716	smarter_cells
SM-D9E5R_S44_E1-50	3	6	12	27	-8.478077111637278	-5.228549646792996	smarter_cells
SM-D9E5R_S45_E1-50	3	6	12	27	-7.773629680220585	-3.972390739016076	smarter_cells
SM-D9E5R_S46_E1-50	3	6	12	26	-10.307093912668575	-4.266156036345085	smarter_cells
SM-D9E5R_S47_E1-50	3	6	12	27	-7.427227236174584	-4.1089864976390675	smarter_cells
SM-D9E5R_S48_E1-50	1	5	14	35	1.7691584357176005	7.794129126710444	smarter_cells
SM-D9E5R_S49_E1-50	3	3	4	4	-8.589642410107757	-1.6383438427960444	smarter_cells
SM-D9E5R_S50_E1-50	3	3	15	7	-10.673160174620222	-3.7983511070841933	smarter_cells
SM-D9E5R_S51_E1-50	3	6	12	27	-8.380151228602088	-4.494868592763569	smarter_cells
SM-D9E5R_S52_E1-50	3	3	15	7	-9.487438595350243	-3.416629536546775	smarter_cells
SM-D9E5R_S53_E1-50	1	4	3	22	5.97699371002374	8.402588674420848	smarter_cells
SM-D9E5R_S54_E1-50	3	6	12	27	-8.33674882026786	-4.649249569585126	smarter_cells
SM-D9E5R_S55_E1-50	3	3	15	7	-10.288689822180736	-3.0195764073401627	smarter_cells
SM-D9E5R_S56_E1-50	3	3	15	7	-10.19658661316933	-2.8684556450227774	smarter_cells
SM-D9E5R_S57_E1-50	1	4	3	29	3.8144097452800314	9.53983810807589	smarter_cells
SM-D9E5R_S58_E1-50	3	3	15	7	-11.285507146932735	-2.8696212900151563	smarter_cells
SM-D9E5R_S59_E1-50	3	3	15	7	-10.237518052966573	-1.8341823546098572	smarter_cells
SM-D9E5R_S60_E1-50	3	6	12	27	-8.489069427275655	-4.902379129618909	smarter_cells
SM-D9E5R_S61_E1-50	3	6	12	26	-9.669300849167774	-5.850497446220877	smarter_cells
SM-D9E5R_S62_E1-50	3	3	4	4	-9.158811795376863	-1.8261360448331314	smarter_cells
SM-D9E5R_S64_E1-50	7	9	17	30	-6.919978253621729	10.227254187727178	smarter_cells
SM-D9E5R_S65_E1-50	1	4	3	29	3.920595881815191	10.060730372281013	smarter_cells
SM-D9E5R_S66_E1-50	3	6	12	26	-9.424179437231663	-4.7744325174632465	smarter_cells
SM-D9E5R_S67_E1-50	3	6	12	27	-7.696159259794152	-4.1541785610849775	smarter_cells
SM-D9E5R_S68_E1-50	3	6	4	9	-7.900370080562085	-3.785823560011781	smarter_cells
SM-D9E5R_S69_E1-50	3	6	12	26	-9.802953372171443	-5.590548402837077	smarter_cells
SM-D9E5R_S70_E1-50	3	6	21	16	-7.966569334472784	-6.085334042199784	smarter_cells
SM-D9E5R_S71_E1-50	3	6	12	27	-8.748516299551445	-5.459971441317821	smarter_cells
SM-D9E5R_S72_E1-50	3	6	12	27	-8.412975113778389	-4.739516987839895	smarter_cells
SM-D9E5S_S03_E1-50	2	1	7	2	5.601026936447085	-3.0639479949593693	smarter_cells
SM-D9E5S_S05_E1-50	5	2	1	18	5.5887262340222055	-11.63179902224965	smarter_cells
SM-D9E5S_S10_E1-50	5	2	1	18	6.538262235662154	-11.223223660551136	smarter_cells
